!!!COM: Haydn, Franz Joseph
!!!OPR: Symphony in G Major
!!!OTL: Affettuoso 
!!!OMV: 4
!!!SCT: H I:92
!!!SCA: Thematisch-bibliographisches Werkevererzeichnis (A. van Hoboken)
!!!YOR: Dover Edition
!!!EED: Frances Bennion
!!!ENC: Frances Bennion
!!!CDT: 1732/3/31/-1809/5/31/
!!!OCY: Österreich
!!!YEC: Copyright (c) 1994, 2000 Center for Computer Assisted Research in the Humanities
!!!YEM: Rights to all derivative editions reserved.
!!!YEM: Refer to licensing agreement for further details.
!!!YEN: United States of America
**kern	**kern	**kern	**kern	**kern	**kern	**kern	**kern	**kern	**kern	**kern	**kern	**kern	**kern
*k[f#]	*k[f#]	*k[f#]	*k[f#]	*k[f#]	*k[f#]	*k[f#]	*k[f#]	*k[f#]	*k[]	*k[]	*k[]	*k[]	*k[]
*G:	*G:	*G:	*G:	*G:	*G:	*G:	*G:	*G:	*G:	*G:	*G:	*G:	*G:
*clefF	*clefF	*clefF	*clefC3	*clefF4	*clefF4	*clefF	*clefF	*clefF4	*clefF	*clefF	*clefF	*clefF	*clefF4
*M2/4	*M2/4	*M2/4	*M2/4	*M2/4	*M2/4	*M2/4	*M2/4	*M2/4	*M2/4	*M2/4	*M2/4	*M2/4	*M2/4
*tb16	*tb16	*tb16	*tb16	*tb16	*tb16	*tb16	*tb16	*tb16	*tb16	*tb16	*tb16	*tb16	*tb16
=0-	=0-	=0-	=0-	=0-	=0-	=0-	=0-	=0-	=0-	=0-	=0-	=0-	=0-
4.r	4.r	4.r	4.r	4.r	4.r	4.r	4.r	4.r	4.r	4.r	4.r	4.r	4.r
8r	8d	8r	8r	8r	8r	8r	8r	8r	8r	8r	8r	8r	8r
=1	=1	=1	=1	=1	=1	=1	=1	=1	=1	=1	=1	=1	=1
2r	8g	2r	2r	8GG	2r	2r	2r	2r	2r	2r	2r	2r	2r
.	8a	.	.	8G	.	.	.	.	.	.	.	.	.
.	8b	.	.	8GG	.	.	.	.	.	.	.	.	.
.	8cc	.	.	8G	.	.	.	.	.	.	.	.	.
=2	=2	=2	=2	=2	=2	=2	=2	=2	=2	=2	=2	=2	=2
2r	4cc#	2r	2r	8GG	2r	2r	2r	2r	2r	2r	2r	2r	2r
.	.	.	.	8G	.	.	.	.	.	.	.	.	.
.	8dd	.	.	8GG	.	.	.	.	.	.	.	.	.
.	8dd#	.	.	8G	.	.	.	.	.	.	.	.	.
=3	=3	=3	=3	=3	=3	=3	=3	=3	=3	=3	=3	=3	=3
2r	8ee	2r	2r	8GG	2r	2r	2r	2r	2r	2r	2r	2r	2r
.	8dd#	.	.	8G	.	.	.	.	.	.	.	.	.
.	8ee	.	.	8GG	.	.	.	.	.	.	.	.	.
.	8cc#	.	.	8G	.	.	.	.	.	.	.	.	.
=4	=4	=4	=4	=4	=4	=4	=4	=4	=4	=4	=4	=4	=4
2r	4dd	2r	2r	8GG	2r	2r	2r	2r	2r	2r	2r	2r	2r
.	.	.	.	8G	.	.	.	.	.	.	.	.	.
.	8b	.	.	8GG	.	.	.	.	.	.	.	.	.
.	8b	.	.	8G	.	.	.	.	.	.	.	.	.
=5	=5	=5	=5	=5	=5	=5	=5	=5	=5	=5	=5	=5	=5
2r	8cc	2r	2r	8GG	2r	2r	2r	2r	2r	2r	2r	2r	2r
.	8b	.	.	8G	.	.	.	.	.	.	.	.	.
.	8cc	.	.	8GG	.	.	.	.	.	.	.	.	.
.	8a#	.	.	8G	.	.	.	.	.	.	.	.	.
=6	=6	=6	=6	=6	=6	=6	=6	=6	=6	=6	=6	=6	=6
2r	4b	2r	2r	8GG	2r	2r	2r	2r	2r	2r	2r	2r	2r
.	.	.	.	8G	.	.	.	.	.	.	.	.	.
.	8g	.	.	8GG	.	.	.	.	.	.	.	.	.
.	8g	.	.	8BB	.	.	.	.	.	.	.	.	.
=7	=7	=7	=7	=7	=7	=7	=7	=7	=7	=7	=7	=7	=7
2r	8e	2r	2r	4C	2r	2r	2r	2r	2r	2r	2r	2r	2r
.	8a	.	.	.	.	.	.	.	.	.	.	.	.
.	8A	.	.	4C#	.	.	.	.	.	.	.	.	.
.	8g	.	.	.	.	.	.	.	.	.	.	.	.
=8	=8	=8	=8	=8	=8	=8	=8	=8	=8	=8	=8	=8	=8
2r	8f#	2r	2r	4D	2r	2r	2r	2r	2r	2r	2r	2r	2r
.	8dd	.	.	.	.	.	.	.	.	.	.	.	.
.	8d	.	.	4r	.	.	.	.	.	.	.	.	.
.	8d	.	.	.	.	.	.	.	.	.	.	.	.
=9	=9	=9	=9	=9	=9	=9	=9	=9	=9	=9	=9	=9	=9
2r	8g	2r	2r	8GG	2r	2r	2r	2r	2r	2r	2r	2r	2r
.	8a	.	.	8G	.	.	.	.	.	.	.	.	.
.	8b	.	.	8GG	.	.	.	.	.	.	.	.	.
.	8cc	.	.	8G	.	.	.	.	.	.	.	.	.
=10	=10	=10	=10	=10	=10	=10	=10	=10	=10	=10	=10	=10	=10
2r	4cc#	2r	2r	8GG	2r	2r	2r	2r	2r	2r	2r	2r	2r
.	.	.	.	8G	.	.	.	.	.	.	.	.	.
.	8dd	.	.	8GG	.	.	.	.	.	.	.	.	.
.	8dd#	.	.	8G	.	.	.	.	.	.	.	.	.
=11	=11	=11	=11	=11	=11	=11	=11	=11	=11	=11	=11	=11	=11
2r	8ee	2r	2r	8GG	2r	2r	2r	2r	2r	2r	2r	2r	2r
.	8dd#	.	.	8G	.	.	.	.	.	.	.	.	.
.	8ee	.	.	8GG	.	.	.	.	.	.	.	.	.
.	8cc#	.	.	8G	.	.	.	.	.	.	.	.	.
=12	=12	=12	=12	=12	=12	=12	=12	=12	=12	=12	=12	=12	=12
2r	4dd	2r	2r	8GG	2r	2r	2r	2r	2r	2r	2r	2r	2r
.	.	.	.	8G	.	.	.	.	.	.	.	.	.
.	8b	.	.	8GG	.	.	.	.	.	.	.	.	.
.	8b	.	.	8G	.	.	.	.	.	.	.	.	.
=13	=13	=13	=13	=13	=13	=13	=13	=13	=13	=13	=13	=13	=13
2r	8cc	2r	2r	8GG	2r	2r	2r	2r	2r	2r	2r	2r	2r
.	8b	.	.	8G	.	.	.	.	.	.	.	.	.
.	8cc	.	.	8GG	.	.	.	.	.	.	.	.	.
.	8a#	.	.	8G	.	.	.	.	.	.	.	.	.
=14	=14	=14	=14	=14	=14	=14	=14	=14	=14	=14	=14	=14	=14
2r	4b	2r	2r	8GG	2r	2r	2r	2r	2r	2r	2r	2r	2r
.	.	.	.	8G	.	.	.	.	.	.	.	.	.
.	8g	.	.	8GG	.	.	.	.	.	.	.	.	.
.	8d	.	.	8BB	.	.	.	.	.	.	.	.	.
=15	=15	=15	=15	=15	=15	=15	=15	=15	=15	=15	=15	=15	=15
2r	8e	2r	2r	4C	2r	2r	2r	2r	2r	2r	2r	2r	2r
.	8a	.	.	.	.	.	.	.	.	.	.	.	.
.	8A	.	.	4D	.	.	.	.	.	.	.	.	.
.	8f#	.	.	.	.	.	.	.	.	.	.	.	.
=16	=16	=16	=16	=16	=16	=16	=16	=16	=16	=16	=16	=16	=16
4.r	8G	4.r	2r	4GG	2r	2r	2r	2r	2r	2r	2r	2r	2r
.	8g	.	.	.	.	.	.	.	.	.	.	.	.
.	8G	.	.	4r	.	.	.	.	.	.	.	.	.
8dd	8d	8d	.	.	.	.	.	.	.	.	.	.	.
=17	=17	=17	=17	=17	=17	=17	=17	=17	=17	=17	=17	=17	=17
8gg	8g	8g	8G	2r	2r	2r	2r	2r	2r	8C	2r	2r	2r
8aa	8a	8f#	8g	.	.	.	.	.	.	8c	.	.	.
8bb	8b	8g	8G	.	.	.	.	.	.	8C	.	.	.
8ccc	8cc	8a	8g	.	.	.	.	.	.	8c	.	.	.
=18	=18	=18	=18	=18	=18	=18	=18	=18	=18	=18	=18	=18	=18
4ccc#	4cc#	4a#	8G	2r	2r	2r	2r	2r	2r	8C	2r	2r	2r
.	.	.	8g	.	.	.	.	.	.	8c	.	.	.
8ddd	8dd	8b	8G	.	.	.	.	.	.	8C	.	.	.
8ddd#	8dd#	8b	8g	.	.	.	.	.	.	8c	.	.	.
=19	=19	=19	=19	=19	=19	=19	=19	=19	=19	=19	=19	=19	=19
8eee	8ee	8cc	8G	2r	2r	2r	2r	2r	2r	8C	2r	2r	2r
8ddd#	8dd#	8b	8g	.	.	.	.	.	.	8c	.	.	.
8eee	8ee	8cc	8G	.	.	.	.	.	.	8C	.	.	.
8ccc#	8cc#	8a#	8g	.	.	.	.	.	.	8c	.	.	.
=20	=20	=20	=20	=20	=20	=20	=20	=20	=20	=20	=20	=20	=20
4ddd	4dd	4b	8G	2r	2r	2r	2r	2r	2r	8C	2r	2r	2r
.	.	.	8g	.	.	.	.	.	.	8c	.	.	.
8bb	8b	8g	8G	.	.	.	.	.	.	8C	.	.	.
8bb	8b	8g	8g	.	.	.	.	.	.	8c	.	.	.
=21	=21	=21	=21	=21	=21	=21	=21	=21	=21	=21	=21	=21	=21
8ccc	8cc	8a	8G	2r	2r	2r	2r	2r	2r	8C	2r	2r	2r
8bb	8b	8g#	8g	.	.	.	.	.	.	8c	.	.	.
8ccc	8cc	8a	8G	.	.	.	.	.	.	8C	.	.	.
8aa#	8a#	8f#	8g	.	.	.	.	.	.	8c	.	.	.
=22	=22	=22	=22	=22	=22	=22	=22	=22	=22	=22	=22	=22	=22
4bb	4b	4g	8G	4.r	2r	2r	2r	2r	2r	8C	2r	2r	2r
.	.	.	8g	.	.	.	.	.	.	8c	.	.	.
8gg	8g	8B	8G	.	.	.	.	.	.	8C	.	.	.
8dd	8d	8d	8B	8BB	.	.	.	.	.	8r	.	.	.
=23	=23	=23	=23	=23	=23	=23	=23	=23	=23	=23	=23	=23	=23
8ee	8e	8e	4c	4C	2r	2r	2r	2r	2r	2r	2r	2r	2r
8aa	8a	8a	.	.	.	.	.	.	.	.	.	.	.
8a	8A	8A	4c#	4C#	.	.	.	.	.	.	.	.	.
8gg	8g	8g	.	.	.	.	.	.	.	.	.	.	.
=24	=24	=24	=24	=24	=24	=24	=24	=24	=24	=24	=24	=24	=24
8ff#	8f#	8f#	4d	4D	2r	2r	2r	2r	2r	2r	2r	2r	2r
8ddd	8dd	8dd	.	.	.	.	.	.	.	.	.	.	.
8dd	8d	8d	4r	4r	.	.	.	.	.	.	.	.	.
8dd	8d	8d	.	.	.	.	.	.	.	.	.	.	.
=25	=25	=25	=25	=25	=25	=25	=25	=25	=25	=25	=25	=25	=25
8gg	8g	8g	8G	2r	2r	2r	2r	2r	2r	8C	2r	2r	2r
8aa	8a	8f#	8g	.	.	.	.	.	.	8c	.	.	.
8bb	8b	8g	8G	.	.	.	.	.	.	8C	.	.	.
8ccc	8cc	8a	8g	.	.	.	.	.	.	8c	.	.	.
=26	=26	=26	=26	=26	=26	=26	=26	=26	=26	=26	=26	=26	=26
4ccc#	4cc#	4a#	8G	2r	2r	2r	2r	2r	2r	8C	2r	2r	2r
.	.	.	8g	.	.	.	.	.	.	8c	.	.	.
8ddd	8dd	8b	8G	.	.	.	.	.	.	8C	.	.	.
8ddd#	8dd#	8b	8g	.	.	.	.	.	.	8c	.	.	.
=27	=27	=27	=27	=27	=27	=27	=27	=27	=27	=27	=27	=27	=27
8eee	8ee	8cc	8G	2r	2r	2r	2r	2r	2r	8C	2r	2r	2r
8ddd#	8dd#	8b	8g	.	.	.	.	.	.	8c	.	.	.
8eee	8ee	8cc	8G	.	.	.	.	.	.	8C	.	.	.
8ccc#	8cc#	8a#	8g	.	.	.	.	.	.	8c	.	.	.
=28	=28	=28	=28	=28	=28	=28	=28	=28	=28	=28	=28	=28	=28
4ddd	4dd	4b	8G	2r	2r	2r	2r	2r	2r	8C	2r	2r	2r
.	.	.	8g	.	.	.	.	.	.	8c	.	.	.
8bb	8b	8g	8G	.	.	.	.	.	.	8C	.	.	.
8bb	8b	8g	8g	.	.	.	.	.	.	8c	.	.	.
=29	=29	=29	=29	=29	=29	=29	=29	=29	=29	=29	=29	=29	=29
8ccc	8cc	8a	8G	2r	2r	2r	2r	2r	2r	8C	2r	2r	2r
8bb	8b	8g#	8g	.	.	.	.	.	.	8c	.	.	.
8ccc	8cc	8a	8G	.	.	.	.	.	.	8C	.	.	.
8aa#	8a#	8f#	8g	.	.	.	.	.	.	8c	.	.	.
=30	=30	=30	=30	=30	=30	=30	=30	=30	=30	=30	=30	=30	=30
4bb	4b	4g	8G	4.r	2r	2r	2r	2r	2r	8C	2r	2r	2r
.	.	.	8g	.	.	.	.	.	.	8c	.	.	.
8gg	8g	8B	8G	.	.	.	.	.	.	8C	.	.	.
8dd	8d	8d	8B	8BB	.	.	.	.	.	8r	.	.	.
=31	=31	=31	=31	=31	=31	=31	=31	=31	=31	=31	=31	=31	=31
8ee	8e	8e	4c	4C	2r	2r	2r	2r	2r	2r	2r	2r	2r
8aa	8a	8a	.	.	.	.	.	.	.	.	.	.	.
8a	8A	8A	4d	4D	.	.	.	.	.	.	.	.	.
8ff#	8f#	8f#	.	.	.	.	.	.	.	.	.	.	.
=32	=32	=32	=32	=32	=32	=32	=32	=32	=32	=32	=32	=32	=32
4gg	8G	2g 2B	2d	8GG	8GG	2gg	[2dd	8GG	[2g	[2c	2g	2g	4GG
.	8g	.	.	8G	8G	.	.	8G	.	.	.	.	.
8r	8G	.	.	8GG	8GG	.	.	8GG	.	.	.	.	4r
8gg	8gg	.	.	8G	8G	.	.	8G	.	.	.	.	.
=33	=33	=33	=33	=33	=33	=33	=33	=33	=33	=33	=33	=33	=33
8aa	8aa	2cc 2d	4.f#	8GG	8GG	2ff#	2dd_	8GG	2g_	2c_	2dd	2dd	4GG
8gg	8gg	.	.	8G	8G	.	.	8G	.	.	.	.	.
8aa	8aa	.	.	8GG	8GG	.	.	8GG	.	.	.	.	4r
8ff#	8ff#	.	8a	8G	8G	.	.	8G	.	.	.	.	.
=34	=34	=34	=34	=34	=34	=34	=34	=34	=34	=34	=34	=34	=34
8gg	8gg	2d 2b	2g	8GG	8GG	2gg	2dd_	8GG	2g_	2c_	2g	2g	4GG
8bb	8bb	.	.	8G	8G	.	.	8G	.	.	.	.	.
8dd	8dd	.	.	8GG	8GG	.	.	8GG	.	.	.	.	4r
8gg	8gg	.	.	8G	8G	.	.	8G	.	.	.	.	.
=35	=35	=35	=35	=35	=35	=35	=35	=35	=35	=35	=35	=35	=35
8aa	8aa	2f# 2c	[2d	8GG	8GG	8aa	2dd_	8GG	2g_	2c_	8dd	8g	8GG
8gg	8gg	.	.	8G	8G	8gg	.	8G	.	.	16dd	16g	16GG
.	.	.	.	.	.	.	.	.	.	.	16dd	16g	16GG
8aa	8aa	.	.	8GG	8GG	8aa	.	8GG	.	.	8dd	8g	8GG
8ddd	8ddd	.	.	8G	8G	8ddd	.	8G	.	.	8dd	8g	8GG
=36	=36	=36	=36	=36	=36	=36	=36	=36	=36	=36	=36	=36	=36
4gg	4gg	2B 2g	2d]	8GG	8GG	2bb	2dd_	8GG	2g_	2c_	2g	2g	4GG
.	.	.	.	8G	8G	.	.	8G	.	.	.	.	.
8dd	8dd	.	.	8GG	8GG	.	.	8GG	.	.	.	.	4r
8gg	8gg	.	.	8G	8G	.	.	8G	.	.	.	.	.
=37	=37	=37	=37	=37	=37	=37	=37	=37	=37	=37	=37	=37	=37
8aa	8aa	2d 2cc	4.f#	8GG	8GG	2ff#	2dd_	8GG	2g_	2c_	8dd	8g	8GG
8gg	8gg	.	.	8G	8G	.	.	8G	.	.	16dd	16g	16GG
.	.	.	.	.	.	.	.	.	.	.	16dd	16g	16GG
8aa	8aa	.	.	8GG	8GG	.	.	8GG	.	.	8dd	8g	8GG
8ff#	8ff#	.	8a	8G	8G	.	.	8G	.	.	8dd	8g	8GG
=38	=38	=38	=38	=38	=38	=38	=38	=38	=38	=38	=38	=38	=38
8gg	8gg	2d 2b	2g	8GG	8GG	2gg	2dd_	8GG	2g_	2c_	2g	2g	4GG
8bb	8bb	.	.	8G	8G	.	.	8G	.	.	.	.	.
8dd	8dd	.	.	8GG	8GG	.	.	8GG	.	.	.	.	4r
8gg	8gg	.	.	8G	8G	.	.	8G	.	.	.	.	.
=39	=39	=39	=39	=39	=39	=39	=39	=39	=39	=39	=39	=39	=39
8aa	8aa	2c 2f#	[2d	8GG	8GG	8aa	2dd_	8GG	2g_	2c_	8dd	8g	8GG
8gg	8gg	.	.	8G	8G	8gg	.	8G	.	.	16dd	16g	16GG
.	.	.	.	.	.	.	.	.	.	.	16dd	16g	16GG
8aa	8aa	.	.	8GG	8GG	8aa	.	8GG	.	.	8dd	8g	8GG
8ddd	8ddd	.	.	8G	8G	8ddd	.	8G	.	.	8dd	8g	8GG
=40	=40	=40	=40	=40	=40	=40	=40	=40	=40	=40	=40	=40	=40
4gg	4gg	2B 2g	2d]	8GG	8GG	2bb	2dd_	8GG	2g]	2c]	4g	4g	4GG
.	.	.	.	8G	8G	.	.	8G	.	.	.	.	.
8dd	8dd	.	.	8G	8G	.	.	8G	.	.	4r	4r	4r
8ddd	8ddd	.	.	8G	8G	.	.	8G	.	.	.	.	.
=41	=41	=41	=41	=41	=41	=41	=41	=41	=41	=41	=41	=41	=41
4aa	4aa	2cc 2d	2a	8FF#	8FF#	2ccc	2dd_	8FF#	2r	2r	2r	2r	2r
.	.	.	.	8F#	8F#	.	.	8F#	.	.	.	.	.
8dd	8dd	.	.	8F#	8F#	.	.	8F#	.	.	.	.	.
8ddd	8ddd	.	.	8F#	8F#	.	.	8F#	.	.	.	.	.
=42	=42	=42	=42	=42	=42	=42	=42	=42	=42	=42	=42	=42	=42
4bb	4bb	2b 2d	2b	8GG	8GG	2bb	2dd_	8GG	2r	2r	2r	2r	2r
.	.	.	.	8G	8G	.	.	8G	.	.	.	.	.
8dd	8dd	.	.	8G	8G	.	.	8G	.	.	.	.	.
8ddd	8ddd	.	.	8G	8G	.	.	8G	.	.	.	.	.
=43	=43	=43	=43	=43	=43	=43	=43	=43	=43	=43	=43	=43	=43
8ff#	8ff#	2cc 2d	2f#	8AA	8AA	2ff#	2dd_	8AA	2r	2r	8dd	8dd	4D
8ddd	8ddd	.	.	8A	8A	.	.	8A	.	.	16dd	16dd	.
.	.	.	.	.	.	.	.	.	.	.	16dd	16dd	.
8dd	8dd	.	.	8A	8A	.	.	8A	.	.	8dd	8dd	4r
8ddd	8ddd	.	.	8A	8A	.	.	8A	.	.	8dd	8dd	.
=44	=44	=44	=44	=44	=44	=44	=44	=44	=44	=44	=44	=44	=44
8gg	8gg	2b 2d	2g	8BB	8BB	2gg	2dd_	8BB	2cc	2e	[2dd	2g	4GG
8ddd	8ddd	.	.	8B	8B	.	.	8B	.	.	.	.	.
8dd	8dd	.	.	8B	8B	.	.	8B	.	.	.	.	4r
8ddd	8ddd	.	.	8B	8B	.	.	8B	.	.	.	.	.
=45	=45	=45	=45	=45	=45	=45	=45	=45	=45	=45	=45	=45	=45
8aa	16aa	2cc 2d	2a	8FF#	8FF#	2aa	2dd_	8FF#	2dd	2g	2dd]	2dd	4D
.	16aa	.	.	.	.	.	.	.	.	.	.	.	.
8ddd	16ddd	.	.	8F#	8F#	.	.	8F#	.	.	.	.	.
.	16ddd	.	.	.	.	.	.	.	.	.	.	.	.
8dd	16dd	.	.	8F#	8F#	.	.	8F#	.	.	.	.	4r
.	16dd	.	.	.	.	.	.	.	.	.	.	.	.
8ccc	16ccc	.	.	8F#	8F#	.	.	8F#	.	.	.	.	.
.	16ccc	.	.	.	.	.	.	.	.	.	.	.	.
=46	=46	=46	=46	=46	=46	=46	=46	=46	=46	=46	=46	=46	=46
8bb	16bb	8d	8g	8G	8G	4bb	4dd]	8G	4ee	4cc	4dd	4g	4GG
.	16bb	.	.	.	.	.	.	.	.	.	.	.	.
8aa#	16aa#	4d	8f#	8F#	8F#	.	.	8F#	.	.	.	.	.
.	16aa#	.	.	.	.	.	.	.	.	.	.	.	.
8bb	16bb	.	8g	8G	8G	4r	4r	8G	4r	4r	4r	4r	4r
.	16bb	.	.	.	.	.	.	.	.	.	.	.	.
8ff#	16ff#	[8d	8a	8A	8A	.	.	8A	.	.	.	.	.
.	16ff#	.	.	.	.	.	.	.	.	.	.	.	.
=47	=47	=47	=47	=47	=47	=47	=47	=47	=47	=47	=47	=47	=47
8gg	16gg	8d]	8b	8B	8B	2r	2r	8B	2r	2r	2r	2r	2r
.	16gg	.	.	.	.	.	.	.	.	.	.	.	.
8ff#	16ff#	4d	8a	8A	8A	.	.	8A	.	.	.	.	.
.	16ff#	.	.	.	.	.	.	.	.	.	.	.	.
8gg	16gg	.	8b	8B	8B	.	.	8B	.	.	.	.	.
.	16gg	.	.	.	.	.	.	.	.	.	.	.	.
8aa#	16aa#	[8d	8f#	8F#	8F#	.	.	8F#	.	.	.	.	.
.	16aa#	.	.	.	.	.	.	.	.	.	.	.	.
=48	=48	=48	=48	=48	=48	=48	=48	=48	=48	=48	=48	=48	=48
8bb	16bb	8d]	8g	8G	8G	2r	2r	8G	4ee	4cc	2r	2r	2r
.	16bb	.	.	.	.	.	.	.	.	.	.	.	.
8aa#	16aa#	4d	8f#	8F#	8F#	.	.	8F#	.	.	.	.	.
.	16aa#	.	.	.	.	.	.	.	.	.	.	.	.
8bb	16bb	.	8g	8G	8G	.	.	8G	4r	4r	.	.	.
.	16bb	.	.	.	.	.	.	.	.	.	.	.	.
8ff#	16ff#	[8d	8a	8A	8A	.	.	8A	.	.	.	.	.
.	16ff#	.	.	.	.	.	.	.	.	.	.	.	.
=49	=49	=49	=49	=49	=49	=49	=49	=49	=49	=49	=49	=49	=49
8gg	16gg	8d]	8b	8B	8B	2r	2r	8B	2r	2r	2r	2r	2r
.	16gg	.	.	.	.	.	.	.	.	.	.	.	.
8ff#	16ff#	4d	8a	8A	8A	.	.	8A	.	.	.	.	.
.	16ff#	.	.	.	.	.	.	.	.	.	.	.	.
8gg	16gg	.	8b	8B	8B	.	.	8B	.	.	.	.	.
.	16gg	.	.	.	.	.	.	.	.	.	.	.	.
8dd#	16dd#	8cc	8a	8A	8A	.	.	8A	.	.	.	.	.
.	16dd#	.	.	.	.	.	.	.	.	.	.	.	.
=50	=50	=50	=50	=50	=50	=50	=50	=50	=50	=50	=50	=50	=50
8ee	16ee	16b	8g	8G	8G	2r	2r	8G	4ee	4cc	2r	2r	2r
.	16ee	16b	.	.	.	.	.	.	.	.	.	.	.
8dd#	16dd#	16a	8f#	8F#	8F#	.	.	8F#	.	.	.	.	.
.	16dd#	16a	.	.	.	.	.	.	.	.	.	.	.
8ee	16ee	16b	8g	8G	8G	.	.	8G	4r	4r	.	.	.
.	16ee	16b	.	.	.	.	.	.	.	.	.	.	.
8ff#	16ff#	16a	8a	8D#	8D#	.	.	8D#	.	.	.	.	.
.	16ff#	16a	.	.	.	.	.	.	.	.	.	.	.
=51	=51	=51	=51	=51	=51	=51	=51	=51	=51	=51	=51	=51	=51
8gg	16gg	16g	8b	8E	8E	2r	2r	8E	2r	2r	2r	2r	2r
.	16gg	16g	.	.	.	.	.	.	.	.	.	.	.
8ff#	16ff#	16a	8a	8F#	8F#	.	.	8F#	.	.	.	.	.
.	16ff#	16a	.	.	.	.	.	.	.	.	.	.	.
8ee	16ee	16b	8g	8G	8G	.	.	8G	.	.	.	.	.
.	16ee	16b	.	.	.	.	.	.	.	.	.	.	.
8dd	16dd	16b	8f#	8G#	8G#	.	.	8G#	.	.	.	.	.
.	16dd	16b	.	.	.	.	.	.	.	.	.	.	.
=52	=52	=52	=52	=52	=52	=52	=52	=52	=52	=52	=52	=52	=52
8cc#	16cc#	16a	4e	4A	4A	2r	2r	4A	[2dd	[2dd	2r	2r	2r
.	16cc#	16a	.	.	.	.	.	.	.	.	.	.	.
8dd	16dd	16b	.	.	.	.	.	.	.	.	.	.	.
.	16dd	16b	.	.	.	.	.	.	.	.	.	.	.
8ee	16ee	16cc#	4r	4r	4r	.	.	4r	.	.	.	.	.
.	16ee	16cc#	.	.	.	.	.	.	.	.	.	.	.
8ff#	16ff#	16dd	.	.	.	.	.	.	.	.	.	.	.
.	16ff#	16dd	.	.	.	.	.	.	.	.	.	.	.
=53	=53	=53	=53	=53	=53	=53	=53	=53	=53	=53	=53	=53	=53
8gg	16gg	16ee	4.r	4.r	4.r	4r	4r	4.r	2dd_	2dd]	2r	2r	2r
.	16gg	16ee	.	.	.	.	.	.	.	.	.	.	.
8bb	16bb	16gg	.	.	.	.	.	.	.	.	.	.	.
.	16bb	16gg	.	.	.	.	.	.	.	.	.	.	.
8aa	16aa	16ff#	.	.	.	4gg	[4ee	.	.	.	.	.	.
.	16aa	16ff#	.	.	.	.	.	.	.	.	.	.	.
8gg	16gg	16ee	8A	8AA	8AA	.	.	8AA	.	.	.	.	.
.	16gg	16ee	.	.	.	.	.	.	.	.	.	.	.
=54	=54	=54	=54	=54	=54	=54	=54	=54	=54	=54	=54	=54	=54
4ff#	4.ff#	8dd	8d	8D	8D	2ff#	4ee]	8D	4dd]	4g	2r	2r	2r
.	.	8a	8e	8E	8E	.	.	8E	.	.	.	.	.
4r	.	[4dd	8f#	8F#	8F#	.	[4dd	8F#	4r	4r	.	.	.
.	8ff#	.	8g	8G	8G	.	.	8G	.	.	.	.	.
=55	=55	=55	=55	=55	=55	=55	=55	=55	=55	=55	=55	=55	=55
2r	4.ee	4dd]	4g#	4G#	4G#	2ee	4dd]	4G#	2r	2r	2r	2r	2r
.	.	[4cc#	8a	8A	8A	.	[4cc#	8A	.	.	.	.	.
.	16ff#	.	8a#	8A#	8A#	.	.	8A#	.	.	.	.	.
.	16ee	.	.	.	.	.	.	.	.	.	.	.	.
=56	=56	=56	=56	=56	=56	=56	=56	=56	=56	=56	=56	=56	=56
2r	4.dd	4cc#]	8b	8B	8B	2dd	4cc#]	8B	2r	2r	2r	2r	2r
.	.	.	8a#	8A#	8A#	.	.	8A#	.	.	.	.	.
.	.	[4b	8b	8B	8B	.	[4b	8B	.	.	.	.	.
.	8ee	.	8g#	8G#	8G#	.	.	8G#	.	.	.	.	.
=57	=57	=57	=57	=57	=57	=57	=57	=57	=57	=57	=57	=57	=57
2r	4.cc#	4b]	4a	4A	4A	2cc#	4b]	4A	2r	2r	2r	2r	2r
.	.	[4a	8f#	8F#	8F#	.	[4a	8F#	.	.	.	.	.
.	16dd	.	8f#	8F#	8F#	.	.	8F#	.	.	.	.	.
.	16cc#	.	.	.	.	.	.	.	.	.	.	.	.
=58	=58	=58	=58	=58	=58	=58	=58	=58	=58	=58	=58	=58	=58
2r	4.b	4a]	8g	8G	8G	2b	4a]	8G	2r	2r	2r	2r	2r
.	.	.	8f#	8F#	8F#	.	.	8F#	.	.	.	.	.
.	.	[4g	8g	8G	8G	.	[4g	8G	.	.	.	.	.
.	8ee	.	8e	8E	8E	.	.	8E	.	.	.	.	.
=59	=59	=59	=59	=59	=59	=59	=59	=59	=59	=59	=59	=59	=59
2r	4.a	4g]	4c#	4C#	4C#	2a	4g]	4C#	2r	2r	2r	2r	2r
.	.	4f#	4d	4D	4D	.	4f#	4D	.	.	.	.	.
.	16b	.	.	.	.	.	.	.	.	.	.	.	.
.	16a	.	.	.	.	.	.	.	.	.	.	.	.
=60	=60	=60	=60	=60	=60	=60	=60	=60	=60	=60	=60	=60	=60
4gg#	16g#	16f	[2d	8B	8B	4g#	[2f	[2d	[2g	[2g	[2dd	[2dd	4D
.	16g#	16f	.	.	.	.	.	.	.	.	.	.	.
.	16g#	16f	.	8B	8B	.	.	.	.	.	.	.	.
.	16g#	16f	.	.	.	.	.	.	.	.	.	.	.
4aa	16a	16f	.	8A	8A	4a	.	.	.	.	.	.	4r
.	16a	16f	.	.	.	.	.	.	.	.	.	.	.
.	16a	16f	.	8A	8A	.	.	.	.	.	.	.	.
.	16a	16f	.	.	.	.	.	.	.	.	.	.	.
=61	=61	=61	=61	=61	=61	=61	=61	=61	=61	=61	=61	=61	=61
4gg#	16g#	16f	4d]	8B	8B	4g#	4f]	4d]	4g]	4g]	4dd]	4dd]	2r
.	16g#	16f	.	.	.	.	.	.	.	.	.	.	.
.	16g#	16f	.	8B	8B	.	.	.	.	.	.	.	.
.	16g#	16f	.	.	.	.	.	.	.	.	.	.	.
4r	16dd	16b	4r	8E	8E	4r	4r	4r	4r	4r	4r	4r	.
.	16dd	16b	.	.	.	.	.	.	.	.	.	.	.
.	16dd	16b	.	8E	8E	.	.	.	.	.	.	.	.
.	16dd	16b	.	.	.	.	.	.	.	.	.	.	.
=62	=62	=62	=62	=62	=62	=62	=62	=62	=62	=62	=62	=62	=62
4ccc#	16cc#	16g	4e	8A	8A	4cc#	4e	4e	2r	2r	2r	2r	2r
.	16cc#	16g	.	.	.	.	.	.	.	.	.	.	.
.	16cc#	16g	.	8A	8A	.	.	.	.	.	.	.	.
.	16cc#	16g	.	.	.	.	.	.	.	.	.	.	.
4ddd	16dd	16f	4d	8B-	8B-	4dd	4d	4d	.	.	.	.	.
.	16dd	16f	.	.	.	.	.	.	.	.	.	.	.
.	16dd	16f	.	8B-	8B-	.	.	.	.	.	.	.	.
.	16dd	16f	.	.	.	.	.	.	.	.	.	.	.
=63	=63	=63	=63	=63	=63	=63	=63	=63	=63	=63	=63	=63	=63
4ccc#	16cc#	16g	4e	8A	8A	4cc#	4e	4e	2r	2r	2r	2r	2r
.	16cc#	16g	.	.	.	.	.	.	.	.	.	.	.
.	16cc#	16g	.	8A	8A	.	.	.	.	.	.	.	.
.	16cc#	16g	.	.	.	.	.	.	.	.	.	.	.
4r	16gg	16cc#	4r	8AA	8AA	4r	4r	4r	.	.	.	.	.
.	16gg	16cc#	.	.	.	.	.	.	.	.	.	.	.
.	16gg	16cc#	.	8AA	8AA	.	.	.	.	.	.	.	.
.	16gg	16cc#	.	.	.	.	.	.	.	.	.	.	.
=64	=64	=64	=64	=64	=64	=64	=64	=64	=64	=64	=64	=64	=64
4ff#	16ff#	16cc	4a	8D	8D	4ff#	4a	4A	4dd	4dd	2r	2r	2r
.	16ff#	16cc	.	.	.	.	.	.	.	.	.	.	.
.	16ff#	16cc	.	8D	8D	.	.	.	.	.	.	.	.
.	16ff#	16cc	.	.	.	.	.	.	.	.	.	.	.
4gg	16gg	16b-	4g	8E-	8E-	4gg	4g	4G	4cc	4cc	.	.	.
.	16gg	16b-	.	.	.	.	.	.	.	.	.	.	.
.	16gg	16b-	.	8E-	8E-	.	.	.	.	.	.	.	.
.	16gg	16b-	.	.	.	.	.	.	.	.	.	.	.
=65	=65	=65	=65	=65	=65	=65	=65	=65	=65	=65	=65	=65	=65
4ff#	16ff#	16cc	4a	8D	8D	4ff#	4a	4A	4dd	4dd	2r	2r	2r
.	16ff#	16cc	.	.	.	.	.	.	.	.	.	.	.
.	16ff#	16cc	.	8D	8D	.	.	.	.	.	.	.	.
.	16ff#	16cc	.	.	.	.	.	.	.	.	.	.	.
4r	16ccc	16a	4r	8F#	8F#	4r	4r	4r	4r	4r	.	.	.
.	16ccc	16a	.	.	.	.	.	.	.	.	.	.	.
.	16ccc	16a	.	8F#	8F#	.	.	.	.	.	.	.	.
.	16ccc	16a	.	.	.	.	.	.	.	.	.	.	.
=66	=66	=66	=66	=66	=66	=66	=66	=66	=66	=66	=66	=66	=66
4bb	16bb	16d	16g	8G	8G	4bb	[2b	4G	2r	2r	2r	2r	2r
.	16bb	16d	16g	.	.	.	.	.	.	.	.	.	.
.	16bb	16d	16g	8G	8G	.	.	.	.	.	.	.	.
.	16bb	16d	16g	.	.	.	.	.	.	.	.	.	.
4aa	16aa	16f#	16b	8D#	8D#	4aa	.	4D#	.	.	.	.	.
.	16aa	16f#	16b	.	.	.	.	.	.	.	.	.	.
.	16aa	16f#	16b	8D#	8D#	.	.	.	.	.	.	.	.
.	16aa	16f#	16b	.	.	.	.	.	.	.	.	.	.
=67	=67	=67	=67	=67	=67	=67	=67	=67	=67	=67	=67	=67	=67
4gg	16gg	16B	16e	8E	8E	4gg	2b]	8E	2r	2r	2r	2r	2r
.	16gg	16B	16e	.	.	.	.	.	.	.	.	.	.
.	16gg	16B	16e	8E	8E	.	.	8E	.	.	.	.	.
.	16gg	16B	16e	.	.	.	.	.	.	.	.	.	.
4gg#	16gg#	16f	16b	8D	8D	4gg#	.	8D	.	.	.	.	.
.	16gg#	16f	16b	.	.	.	.	.	.	.	.	.	.
.	16gg#	16f	16b	8D	8D	.	.	8D	.	.	.	.	.
.	16gg#	16f	16b	.	.	.	.	.	.	.	.	.	.
=68	=68	=68	=68	=68	=68	=68	=68	=68	=68	=68	=68	=68	=68
4aa	16aa	16e	16a	8C#	8C#	4aa	4a	8C#	2r	2r	2r	2r	2r
.	16aa	16e	16a	.	.	.	.	.	.	.	.	.	.
.	16aa	16e	16a	8C#	8C#	.	.	8C#	.	.	.	.	.
.	16aa	16e	16a	.	.	.	.	.	.	.	.	.	.
4bb-	16bb-	16f	16d	8D	8D	4bb-	4ff	8D	.	.	.	.	.
.	16bb-	16f	16d	.	.	.	.	.	.	.	.	.	.
.	16bb-	16f	16d	8D	8D	.	.	8D	.	.	.	.	.
.	16bb-	16f	16d	.	.	.	.	.	.	.	.	.	.
=69	=69	=69	=69	=69	=69	=69	=69	=69	=69	=69	=69	=69	=69
4aa	16aa	16e	16c#	8C#	8C#	4aa	2ee	8C#	2r	2r	2r	2r	2r
.	16aa	16e	16c#	.	.	.	.	.	.	.	.	.	.
.	16aa	16e	16c#	8C#	8C#	.	.	8C#	.	.	.	.	.
.	16aa	16e	16c#	.	.	.	.	.	.	.	.	.	.
4gg	16gg	16cc#	16e	8A	8A	4gg	.	8A	.	.	.	.	.
.	16gg	16cc#	16e	.	.	.	.	.	.	.	.	.	.
.	16gg	16cc#	16e	8A	8A	.	.	8A	.	.	.	.	.
.	16gg	16cc#	16e	.	.	.	.	.	.	.	.	.	.
=70	=70	=70	=70	=70	=70	=70	=70	=70	=70	=70	=70	=70	=70
4ff	16ff	16dd	16f	8D	8D	4ff	4ff	8D	2r	2r	2r	2r	2r
.	16ff	16dd	16f	.	.	.	.	.	.	.	.	.	.
.	16ff	16dd	16f	8D	8D	.	.	8D	.	.	.	.	.
.	16ff	16dd	16f	.	.	.	.	.	.	.	.	.	.
4dd	16dd	16a	16f	8F	8F	4r	4r	8F	.	.	.	.	.
.	16dd	16a	16f	.	.	.	.	.	.	.	.	.	.
.	16dd	16a	16f	8F	8F	.	.	8F	.	.	.	.	.
.	16dd	16a	16f	.	.	.	.	.	.	.	.	.	.
=71	=71	=71	=71	=71	=71	=71	=71	=71	=71	=71	=71	=71	=71
4ee-	16ee-	16b-	16g	8G	8G	2r	2r	8G	2r	2r	2r	2r	2r
.	16ee-	16b-	16g	.	.	.	.	.	.	.	.	.	.
.	16ee-	16b-	16g	8G	8G	.	.	8G	.	.	.	.	.
.	16ee-	16b-	16g	.	.	.	.	.	.	.	.	.	.
4ff#	16ff#	16cc	16a	8A	8A	.	.	8A	.	.	.	.	.
.	16ff#	16cc	16a	.	.	.	.	.	.	.	.	.	.
.	16ff#	16cc	16a	8A	8A	.	.	8A	.	.	.	.	.
.	16ff#	16cc	16a	.	.	.	.	.	.	.	.	.	.
=72	=72	=72	=72	=72	=72	=72	=72	=72	=72	=72	=72	=72	=72
[2gg	16gg	16dd	16d	8B-	8B-	4dd	4dd	4d	2r	2r	[2g	[2g	4GG
.	16gg	16dd	16d	.	.	.	.	.	.	.	.	.	.
.	16gg	16dd	16d	8B-	8B-	.	.	.	.	.	.	.	.
.	16gg	16dd	16d	.	.	.	.	.	.	.	.	.	.
.	16gg	16cc#	16c#	8B-	8B-	4cc#	4cc#	4c#	.	.	.	.	4r
.	16gg	16cc#	16c#	.	.	.	.	.	.	.	.	.	.
.	16gg	16cc#	16c#	8B-	8B-	.	.	.	.	.	.	.	.
.	16gg	16cc#	16c#	.	.	.	.	.	.	.	.	.	.
=73	=73	=73	=73	=73	=73	=73	=73	=73	=73	=73	=73	=73	=73
2gg]	16gg	16dd	16d	8B-	8B-	4dd	4dd	4d	2r	2r	2g]	2g]	4GG
.	16gg	16dd	16d	.	.	.	.	.	.	.	.	.	.
.	16gg	16dd	16d	8B-	8B-	.	.	.	.	.	.	.	.
.	16gg	16dd	16d	.	.	.	.	.	.	.	.	.	.
.	16gg	16ee	16e	8B-	8B-	4ee	4ee	4e	.	.	.	.	8GG
.	16gg	16ee	16e	.	.	.	.	.	.	.	.	.	.
.	16gg	16ee	16e	8B-	8B-	.	.	.	.	.	.	.	8GG
.	16gg	16ee	16e	.	.	.	.	.	.	.	.	.	.
=74	=74	=74	=74	=74	=74	=74	=74	=74	=74	=74	=74	=74	=74
[2gg#	16gg#	16ff	16f	8B-	8B-	4ff	4ff	4f	[2g	[2g	[2dd	[2dd	4D
.	16gg#	16ff	16f	.	.	.	.	.	.	.	.	.	.
.	16gg#	16ff	16f	8B-	8B-	.	.	.	.	.	.	.	.
.	16gg#	16ff	16f	.	.	.	.	.	.	.	.	.	.
.	16gg#	16ee	16e	8B-	8B-	4ee	4ee	4e	.	.	.	.	4r
.	16gg#	16ee	16e	.	.	.	.	.	.	.	.	.	.
.	16gg#	16ee	16e	8B-	8B-	.	.	.	.	.	.	.	.
.	16gg#	16ee	16e	.	.	.	.	.	.	.	.	.	.
=75	=75	=75	=75	=75	=75	=75	=75	=75	=75	=75	=75	=75	=75
2gg#]	16gg#	16ff	16f	8B-	8B-	4ff	4ff	4f	2g_	2g_	2dd_	2dd_	4D
.	16gg#	16ff	16f	.	.	.	.	.	.	.	.	.	.
.	16gg#	16ff	16f	8B-	8B-	.	.	.	.	.	.	.	.
.	16gg#	16ff	16f	.	.	.	.	.	.	.	.	.	.
.	16gg#	16dd	16d	8B-	8B-	4dd	4dd	4d	.	.	.	.	4r
.	16gg#	16dd	16d	.	.	.	.	.	.	.	.	.	.
.	16gg#	16dd	16d	8B-	8B-	.	.	.	.	.	.	.	.
.	16gg#	16dd	16d	.	.	.	.	.	.	.	.	.	.
=76	=76	=76	=76	=76	=76	=76	=76	=76	=76	=76	=76	=76	=76
4aa	16aa	16ff#	16f#	8A	8A	4aa	4ff#	4f#	2g]	2g]	4dd]	4dd]	4D
.	16aa	16ff#	16f#	.	.	.	.	.	.	.	.	.	.
.	16aa	16ff#	16f#	8A	8A	.	.	.	.	.	.	.	.
.	16aa	16ff#	16f#	.	.	.	.	.	.	.	.	.	.
4ddd	16ff#	16dd	16a	8A	8A	4ff#	4dd	4d	.	.	4r	4r	4r
.	16ff#	16dd	16a	.	.	.	.	.	.	.	.	.	.
.	16ff#	16dd	16a	8A	8A	.	.	.	.	.	.	.	.
.	16ff#	16dd	16a	.	.	.	.	.	.	.	.	.	.
=77	=77	=77	=77	=77	=77	=77	=77	=77	=77	=77	=77	=77	=77
4eee	16gg	16ee	16c#	8AA	8AA	4gg	4cc#	2A	2dd	2dd	2r	2r	2r
.	16gg	16ee	16c#	.	.	.	.	.	.	.	.	.	.
.	16gg	16ee	16c#	8AA	8AA	.	.	.	.	.	.	.	.
.	16gg	16ee	16c#	.	.	.	.	.	.	.	.	.	.
4ccc#	16cc#	16g	16e	8AA	8AA	4cc#	4ee	.	.	.	.	.	.
.	16cc#	16g	16e	.	.	.	.	.	.	.	.	.	.
.	16cc#	16g	16e	8AA	8AA	.	.	.	.	.	.	.	.
.	16cc#	16g	16e	.	.	.	.	.	.	.	.	.	.
=78	=78	=78	=78	=78	=78	=78	=78	=78	=78	=78	=78	=78	=78
4ddd	4dd	8f#	8d	4D	4D	4dd	4dd	4D	4g	4g	2r	2r	2r
.	.	8A	8f#	.	.	.	.	.	.	.	.	.	.
4r	4r	8f#	8d	4r	4r	4r	4r	4r	4r	4r	.	.	.
.	.	8A	8f#	.	.	.	.	.	.	.	.	.	.
=79	=79	=79	=79	=79	=79	=79	=79	=79	=79	=79	=79	=79	=79
2r	8r	8d	8d	2r	2r	2r	2r	2r	2r	2r	2r	2r	2r
.	8aa	8A	8f#	.	.	.	.	.	.	.	.	.	.
.	8aa	8f#	8d	.	.	.	.	.	.	.	.	.	.
.	8aa	8A	8f#	.	.	.	.	.	.	.	.	.	.
=80	=80	=80	=80	=80	=80	=80	=80	=80	=80	=80	=80	=80	=80
2r	8aa	8e	8c#	4C#	4C#	2r	2r	2r	2r	2r	2r	2r	2r
.	8gg#	8A	8e	.	.	.	.	.	.	.	.	.	.
.	8gg	8g	8c#	4r	4r	.	.	.	.	.	.	.	.
.	8ee	8A	8e	.	.	.	.	.	.	.	.	.	.
=81	=81	=81	=81	=81	=81	=81	=81	=81	=81	=81	=81	=81	=81
2r	8cc#	8e	8c#	2r	2r	2r	2r	2r	2r	2r	2r	2r	2r
.	8a	8A	8e	.	.	.	.	.	.	.	.	.	.
.	8g	8g	8c#	.	.	.	.	.	.	.	.	.	.
.	8e	8A	8e	.	.	.	.	.	.	.	.	.	.
=82	=82	=82	=82	=82	=82	=82	=82	=82	=82	=82	=82	=82	=82
2r	8d	8f#	8d	4D	4D	2r	2r	2r	2r	2r	2r	2r	2r
.	8dd	8A	8f#	.	.	.	.	.	.	.	.	.	.
.	8f#	8a	8d	4r	4r	.	.	.	.	.	.	.	.
.	8ff#	8A	8f#	.	.	.	.	.	.	.	.	.	.
=83	=83	=83	=83	=83	=83	=83	=83	=83	=83	=83	=83	=83	=83
2r	8a	8f#	8d	2r	2r	2r	2r	2r	2r	2r	2r	2r	2r
.	8aa	8A	8f#	.	.	.	.	.	.	.	.	.	.
.	8aa	8f#	8d	.	.	.	.	.	.	.	.	.	.
.	8aa	8A	8f#	.	.	.	.	.	.	.	.	.	.
=84	=84	=84	=84	=84	=84	=84	=84	=84	=84	=84	=84	=84	=84
2r	8aa	8e	8c#	4C#	4C#	2r	2r	2r	2r	2r	2r	2r	2r
.	8gg#	8A	8e	.	.	.	.	.	.	.	.	.	.
.	8gg	8g	8c#	4r	4r	.	.	.	.	.	.	.	.
.	8ee	8A	8e	.	.	.	.	.	.	.	.	.	.
=85	=85	=85	=85	=85	=85	=85	=85	=85	=85	=85	=85	=85	=85
8r	8cc#	8e	8c#	2r	2r	2r	2r	2r	2r	2r	2r	2r	2r
8ccc#	8a	8A	8e	.	.	.	.	.	.	.	.	.	.
8ccc#	8g	8g	8c#	.	.	.	.	.	.	.	.	.	.
8ccc#	8e	8A	8e	.	.	.	.	.	.	.	.	.	.
=86	=86	=86	=86	=86	=86	=86	=86	=86	=86	=86	=86	=86	=86
8ccc#	8d	8f#	8d	4D	4D	2r	2r	2r	2r	2r	2r	2r	2r
8ddd	8dd	8A	8f#	.	.	.	.	.	.	.	.	.	.
8aa	8f#	8a	8d	4r	4r	.	.	.	.	.	.	.	.
8ff#	8ff#	8A	8f#	.	.	.	.	.	.	.	.	.	.
=87	=87	=87	=87	=87	=87	=87	=87	=87	=87	=87	=87	=87	=87
8dd	8a	8f#	8d	2r	2r	2r	2r	2r	2r	2r	2r	2r	2r
8a	8aa	8A	8f#	.	.	.	.	.	.	.	.	.	.
8f#	8aa	8f#	8d	.	.	.	.	.	.	.	.	.	.
8dd	8aa	8A	8f#	.	.	.	.	.	.	.	.	.	.
=88	=88	=88	=88	=88	=88	=88	=88	=88	=88	=88	=88	=88	=88
4cc#	8aa	8e	8c#	4C#	4C#	2r	2r	2r	2r	2r	2r	2r	2r
.	8gg#	8A	8e	.	.	.	.	.	.	.	.	.	.
4r	8gg	8g	8c#	4r	4r	.	.	.	.	.	.	.	.
.	8ee	8A	8e	.	.	.	.	.	.	.	.	.	.
=89	=89	=89	=89	=89	=89	=89	=89	=89	=89	=89	=89	=89	=89
8r	8cc#	8e	8c#	2r	2r	2r	2r	2r	2r	2r	2r	2r	2r
8ccc#	8a	8A	8e	.	.	.	.	.	.	.	.	.	.
8ccc#	8g	8g	8c#	.	.	.	.	.	.	.	.	.	.
8ccc#	8e	8A	8e	.	.	.	.	.	.	.	.	.	.
=90	=90	=90	=90	=90	=90	=90	=90	=90	=90	=90	=90	=90	=90
8ccc#	8d	8f#	8d	4D	4D	2r	2r	2r	2r	2r	2r	2r	2r
8ddd	8dd	8A	8f#	.	.	.	.	.	.	.	.	.	.
8aa	8f#	8a	8d	4r	4r	.	.	.	.	.	.	.	.
8ff#	8ff#	8A	8f#	.	.	.	.	.	.	.	.	.	.
=91	=91	=91	=91	=91	=91	=91	=91	=91	=91	=91	=91	=91	=91
8dd	8a	8f#	8d	2r	2r	2r	2r	2r	2r	2r	2r	2r	2r
8a	8aa	8A	8f#	.	.	.	.	.	.	.	.	.	.
8f#	8dd	8a	8d	.	.	.	.	.	.	.	.	.	.
8ddd	8ddd	8A	8f#	.	.	.	.	.	.	.	.	.	.
=92	=92	=92	=92	=92	=92	=92	=92	=92	=92	=92	=92	=92	=92
2bb	2bb	8G	4g	4G	4G	2r	2r	2r	2r	2r	2r	2r	2r
.	.	8g	.	.	.	.	.	.	.	.	.	.	.
.	.	8B	4r	4r	4r	.	.	.	.	.	.	.	.
.	.	8b	.	.	.	.	.	.	.	.	.	.	.
=93	=93	=93	=93	=93	=93	=93	=93	=93	=93	=93	=93	=93	=93
4gg	4gg	8e	2r	2r	2r	2r	2r	2r	2r	2r	2r	2r	2r
.	.	8ee	.	.	.	.	.	.	.	.	.	.	.
4ee	4ee	8g	.	.	.	.	.	.	.	.	.	.	.
.	.	8b	.	.	.	.	.	.	.	.	.	.	.
=94	=94	=94	=94	=94	=94	=94	=94	=94	=94	=94	=94	=94	=94
8dd	8dd	4f#	4A	4A	4A	2r	2r	2r	2r	2r	2r	2r	2r
8ee	8ee	.	.	.	.	.	.	.	.	.	.	.	.
8ff#	8ff#	4r	4r	4r	4r	.	.	.	.	.	.	.	.
8gg	8gg	.	.	.	.	.	.	.	.	.	.	.	.
=95	=95	=95	=95	=95	=95	=95	=95	=95	=95	=95	=95	=95	=95
8gg#	8gg#	2r	2r	2r	2r	2r	2r	2r	2r	2r	2r	2r	2r
8aa	8aa	.	.	.	.	.	.	.	.	.	.	.	.
8bb	8bb	.	.	.	.	.	.	.	.	.	.	.	.
8aa	8aa	.	.	.	.	.	.	.	.	.	.	.	.
=96	=96	=96	=96	=96	=96	=96	=96	=96	=96	=96	=96	=96	=96
8gg	8gg	4cc# 4e	4A	4AA	4AA	2r	2r	2r	2r	2r	2r	2r	2r
8ff#	8ff#	.	.	.	.	.	.	.	.	.	.	.	.
8ee	8ee	4r	4r	4r	4r	.	.	.	.	.	.	.	.
8ff#	8ff#	.	.	.	.	.	.	.	.	.	.	.	.
=97	=97	=97	=97	=97	=97	=97	=97	=97	=97	=97	=97	=97	=97
8gg	8gg	4.r	4.r	4.r	4.r	2r	2r	4.r	2r	2r	2r	2r	2r
8aa	8aa	.	.	.	.	.	.	.	.	.	.	.	.
8bb	8bb	.	.	.	.	.	.	.	.	.	.	.	.
8ccc#	8ccc#	8A	8A	8AA	8AA	.	.	8AA	.	.	.	.	.
=98	=98	=98	=98	=98	=98	=98	=98	=98	=98	=98	=98	=98	=98
[2ddd	8ddd	8d	8d	8D	8D	[2dd	[2dd	8D	[2g	[2G	[2dd	[2dd	4D
.	4ddd	8e	8e	8E	8E	.	.	8E	.	.	.	.	.
.	.	8f#	8f#	8F#	8F#	.	.	8F#	.	.	.	.	4r
.	[8ddd	8g	8g	8G	8G	.	.	8G	.	.	.	.	.
=99	=99	=99	=99	=99	=99	=99	=99	=99	=99	=99	=99	=99	=99
2ddd_	8ddd]	4g#	4g#	4G#	4G#	2dd_	2dd_	4G#	2g_	2G_	2dd_	2dd_	4D
.	4ddd	.	.	.	.	.	.	.	.	.	.	.	.
.	.	8a	8a	8A	8A	.	.	8A	.	.	.	.	4r
.	[8ddd	8a#	8a#	8A#	8A#	.	.	8A#	.	.	.	.	.
=100	=100	=100	=100	=100	=100	=100	=100	=100	=100	=100	=100	=100	=100
2ddd_	8ddd]	8b	8b	8B	8B	2dd_	2dd_	8B	2g_	2G_	2dd_	2dd_	4D
.	4ddd	8a#	8a#	8A#	8A#	.	.	8A#	.	.	.	.	.
.	.	8b	8b	8B	8B	.	.	8B	.	.	.	.	4r
.	[8ddd	8g#	8g#	8G#	8G#	.	.	8G#	.	.	.	.	.
=101	=101	=101	=101	=101	=101	=101	=101	=101	=101	=101	=101	=101	=101
2ddd_	8ddd]	4a	4a	4A	4A	2dd_	2dd_	4A	2g_	2G_	2dd_	2dd_	4D
.	4ddd	.	.	.	.	.	.	.	.	.	.	.	.
.	.	8f#	8f#	8F#	8F#	.	.	8F#	.	.	.	.	4r
.	[8ddd	8b	8b	8B	8B	.	.	8B	.	.	.	.	.
=102	=102	=102	=102	=102	=102	=102	=102	=102	=102	=102	=102	=102	=102
2ddd_	8ddd]	8cc	8cc	8c	8c	2dd]	2dd_	8c	2g_	2G_	2dd_	2dd_	4D
.	4ddd	8b	8b	8B	8B	.	.	8B	.	.	.	.	.
.	.	8cc	8cc	8c	8c	.	.	8c	.	.	.	.	4r
.	[8ddd	8a	8a	8A	8A	.	.	8A	.	.	.	.	.
=103	=103	=103	=103	=103	=103	=103	=103	=103	=103	=103	=103	=103	=103
8ddd]	8ddd]	8b	8b	8B	8B	8dd	8dd]	8B	4g]	4G]	4dd]	4dd]	4GG
8r	8r	8r	8r	8r	8r	8r	8r	8r	.	.	.	.	.
8bb	8bb	8gg	8g	8G	8G	8bb	8gg	8G	4r	4r	4r	4r	4r
8r	8r	8r	8r	8r	8r	8r	8r	8r	.	.	.	.	.
=104	=104	=104	=104	=104	=104	=104	=104	=104	=104	=104	=104	=104	=104
8aa	8aa	8ff#	8a	8A	8A	8aa	8ff#	8A	2r	2r	2r	2r	2r
8r	8r	8r	8r	8r	8r	8r	8r	8r	.	.	.	.	.
8ccc#	8cc#	8ee	8A	8AA	8AA	8cc#	8ee	8AA	.	.	.	.	.
8r	8r	8r	8r	8r	8r	8r	8r	8r	.	.	.	.	.
=105	=105	=105	=105	=105	=105	=105	=105	=105	=105	=105	=105	=105	=105
4ddd	4dd	4dd	[2d	8D	8D	2dd	2dd	8D	[2dd	[2g	2r	2r	2r
.	.	.	.	8d	8d	.	.	8d	.	.	.	.	.
8r	8r	[4f# 4a	.	8D	8D	.	.	8D	.	.	.	.	.
8aa	8aa	.	.	8d	8d	.	.	8d	.	.	.	.	.
=106	=106	=106	=106	=106	=106	=106	=106	=106	=106	=106	=106	=106	=106
8gg	8gg	4f# 4a]	4d]	8D	8D	2ff#	2a	8D	2dd_	2g_	2r	2r	2r
8ff#	8ff#	.	.	8d	8d	.	.	8d	.	.	.	.	.
8ee	8ee	4f# 4dd	4d	8D	8D	.	.	8D	.	.	.	.	.
8dd	8dd	.	.	8d	8d	.	.	8d	.	.	.	.	.
=107	=107	=107	=107	=107	=107	=107	=107	=107	=107	=107	=107	=107	=107
4cc#	4cc#	[2g 2cc#	[2e	8D	8D	[2gg	[2ee	8D	2dd_	2g_	2r	2r	2r
.	.	.	.	8d	8d	.	.	8d	.	.	.	.	.
8r	8r	.	.	8D	8D	.	.	8D	.	.	.	.	.
8bb	8bb	.	.	8d	8d	.	.	8d	.	.	.	.	.
=108	=108	=108	=108	=108	=108	=108	=108	=108	=108	=108	=108	=108	=108
8aa	8aa	4g 4cc#]	2e]	8D	8D	2gg]	2ee]	8D	2dd_	2g_	2r	2r	2r
8gg	8gg	.	.	8d	8d	.	.	8d	.	.	.	.	.
8ff#	8ff#	4cc# 4g	.	8D	8D	.	.	8D	.	.	.	.	.
8ee	8ee	.	.	8d	8d	.	.	8d	.	.	.	.	.
=109	=109	=109	=109	=109	=109	=109	=109	=109	=109	=109	=109	=109	=109
4dd	4dd	4dd 4f#	4f#	8D	8D	4ff#	4dd	8D	2dd_	2g_	8dd	8dd	8D
.	.	.	.	8d	8d	.	.	8d	.	.	16dd	16dd	16D
.	.	.	.	.	.	.	.	.	.	.	16dd	16dd	16D
8r	8r	8r	4r	8D	8D	8r	8r	8D	.	.	4dd	4dd	4D
8a	8a	8a	.	8d	8d	8a	8a	8d	.	.	.	.	.
=110	=110	=110	=110	=110	=110	=110	=110	=110	=110	=110	=110	=110	=110
8dd	8dd	8dd	2r	8D	8D	8dd	8dd	8D	2dd_	2g_	2r	2r	2r
8ee	8ee	8cc#	.	8d	8d	8ee	8cc#	8d	.	.	.	.	.
8ff#	8ff#	8dd	.	8D	8D	8ff#	8dd	8D	.	.	.	.	.
8gg	8gg	8ee	.	8d	8d	8gg	8ee	8d	.	.	.	.	.
=111	=111	=111	=111	=111	=111	=111	=111	=111	=111	=111	=111	=111	=111
4aa	4aa	4ff#	4.r	8D	8D	4aa	4ff#	8D	2dd_	2g_	8dd	8dd	8D
.	.	.	.	8d	8d	.	.	8d	.	.	16dd	16dd	16D
.	.	.	.	.	.	.	.	.	.	.	16dd	16dd	16D
8r	8r	8r	.	8D	8D	8r	8r	8D	.	.	8dd	8dd	8D
8dd	8dd	8d	8d	8d	8d	8dd	8dd	8d	.	.	8dd	8dd	8D
=112	=112	=112	=112	=112	=112	=112	=112	=112	=112	=112	=112	=112	=112
8ff#	8ff#	8dd	8cc	8D	8D	8cc	8a	8D	2dd]	2g]	8dd	8dd	8D
8gg	8gg	8ee	8b	8d	8d	8b	8g	8d	.	.	8dd	8dd	8D
8aa	8aa	8ff#	8a	8D	8D	8a	8f#	8D	.	.	8dd	8dd	8D
8bb	8bb	8gg	8g	8d	8d	8g	8e	8d	.	.	8dd	8dd	8D
=113	=113	=113	=113	=113	=113	=113	=113	=113	=113	=113	=113	=113	=113
4ccc	4ccc	4aa	4f#	4D	4D	4f#	4d	4D	4dd	4g	4dd	4dd	4D
8r	8r	8r	8r	8r	8r	8r	8r	8r	8r	8r	8r	8r	8r
8dd	8d	8r	8r	8r	8r	8d	8r	8r	8r	8r	8r	8r	8r
=114	=114	=114	=114	=114	=114	=114	=114	=114	=114	=114	=114	=114	=114
8gg	8g	[2g	2e-	2e-	2e-	8g	[2g	2e-	2cc	2c	2gg	2g	4GG
8aa	8a	.	.	.	.	8a	.	.	.	.	.	.	.
8bb-	8b-	.	.	.	.	8b-	.	.	.	.	.	.	4r
8ccc	8cc	.	.	.	.	8cc	.	.	.	.	.	.	.
=115	=115	=115	=115	=115	=115	=115	=115	=115	=115	=115	=115	=115	=115
4ccc#	4cc#	4g]	2d	2d	2d	4cc#	4g]	2d	4g	4G	4dd	4dd	4D
8ddd	8dd	4f#	.	.	.	8dd	4f#	.	4r	4r	4r	4r	4r
8ddd	8dd	.	.	.	.	8dd	.	.	.	.	.	.	.
=116	=116	=116	=116	=116	=116	=116	=116	=116	=116	=116	=116	=116	=116
8eee-	8ee-	[2f#	8c	8c	8c	8ee-	4a	8c	2r	2r	2r	2r	2r
8ddd	8dd	.	8B-	8B-	8B-	8dd	.	8B-	.	.	.	.	.
8eee-	8ee-	.	8c	8c	8c	8ee-	[4f#	8c	.	.	.	.	.
8ccc	8cc	.	8A	8A	8A	8cc	.	8A	.	.	.	.	.
=117	=117	=117	=117	=117	=117	=117	=117	=117	=117	=117	=117	=117	=117
4ddd	4dd	4f#]	4B-	4B-	4B-	4dd	4f#]	4B-	2r	2r	2r	2r	2r
8bb-	8b-	[4g	4G	4G	4G	8b-	[4g	4G	.	.	.	.	.
8bb-	8b-	.	.	.	.	8b-	.	.	.	.	.	.	.
=118	=118	=118	=118	=118	=118	=118	=118	=118	=118	=118	=118	=118	=118
8ccc	8cc	4g]	8A	8A	8A	8cc	4g]	8A	2r	2r	2r	2r	2r
8bb-	8b-	.	8G	8G	8G	8b-	.	8G	.	.	.	.	.
8ccc	8cc	4f#	8A	8A	8A	8cc	4f#	8A	.	.	.	.	.
8aa	8a	.	8d	8D	8D	8a	.	8D	.	.	.	.	.
=119	=119	=119	=119	=119	=119	=119	=119	=119	=119	=119	=119	=119	=119
4bb-	4b-	4g	4G	4G	4G	4b-	4g	4G	2r	2r	2r	2r	2r
8gg	8g	4r	4r	4r	4r	8g	4r	4r	.	.	.	.	.
8r	8r	.	.	.	.	8r	.	.	.	.	.	.	.
=120	=120	=120	=120	=120	=120	=120	=120	=120	=120	=120	=120	=120	=120
2r	2r	2r	2r	2r	2r	2r	2r	2r	2r	2r	2r	2r	2r
=121	=121	=121	=121	=121	=121	=121	=121	=121	=121	=121	=121	=121	=121
2r	4.r	2r	2r	2r	2r	2r	2r	2r	2r	2r	2r	2r	2r
.	8g	.	.	.	.	.	.	.	.	.	.	.	.
=122	=122	=122	=122	=122	=122	=122	=122	=122	=122	=122	=122	=122	=122
2r	8cc	2r	2r	2r	2r	2r	2r	2r	2r	2r	2r	2r	2r
.	8dd	.	.	.	.	.	.	.	.	.	.	.	.
.	8dd#	.	.	.	.	.	.	.	.	.	.	.	.
.	8ff	.	.	.	.	.	.	.	.	.	.	.	.
=123	=123	=123	=123	=123	=123	=123	=123	=123	=123	=123	=123	=123	=123
2r	4ff#	4ee-	4cc	2r	2r	2r	2r	2r	2r	2r	2r	2r	2r
.	8gg	8dd	8b	.	.	.	.	.	.	.	.	.	.
.	8r	8r	8r	.	.	.	.	.	.	.	.	.	.
=124	=124	=124	=124	=124	=124	=124	=124	=124	=124	=124	=124	=124	=124
2r	2r	2r	2r	2r	2r	2r	2r	2r	2r	2r	2r	2r	2r
=125	=125	=125	=125	=125	=125	=125	=125	=125	=125	=125	=125	=125	=125
2r	4.r	2r	2r	2r	2r	2r	2r	2r	2r	2r	2r	2r	2r
.	8a	.	.	.	.	.	.	.	.	.	.	.	.
=126	=126	=126	=126	=126	=126	=126	=126	=126	=126	=126	=126	=126	=126
2r	8dd	2r	2r	2r	2r	2r	2r	2r	2r	2r	2r	2r	2r
.	8ee	.	.	.	.	.	.	.	.	.	.	.	.
.	8ff	.	.	.	.	.	.	.	.	.	.	.	.
.	8gg	.	.	.	.	.	.	.	.	.	.	.	.
=127	=127	=127	=127	=127	=127	=127	=127	=127	=127	=127	=127	=127	=127
2r	4gg#	4ff	4dd	2r	2r	2r	2r	2r	2r	2r	2r	2r	2r
.	8aa	8ee	8cc#	.	.	.	.	.	.	.	.	.	.
.	8r	8r	8r	.	.	.	.	.	.	.	.	.	.
=128	=128	=128	=128	=128	=128	=128	=128	=128	=128	=128	=128	=128	=128
2r	2r	2r	2r	2r	2r	2r	2r	2r	2r	2r	2r	2r	2r
=129	=129	=129	=129	=129	=129	=129	=129	=129	=129	=129	=129	=129	=129
4.r	4.r	2r	2r	2r	2r	4.r	2r	2r	2r	2r	2r	2r	2r
8b	8b	.	.	.	.	8b	.	.	.	.	.	.	.
=130	=130	=130	=130	=130	=130	=130	=130	=130	=130	=130	=130	=130	=130
8ee	8ee	4r	4r	4r	4r	8ee	4r	4r	2cc	2cc	2r	2r	2r
8ff#	8ff#	.	.	.	.	8ff#	.	.	.	.	.	.	.
8gg	8gg	4g	4e	4e	4e	8gg	4gg	4e	.	.	.	.	.
8aa	8aa	.	.	.	.	8aa	.	.	.	.	.	.	.
=131	=131	=131	=131	=131	=131	=131	=131	=131	=131	=131	=131	=131	=131
4aa#	4aa#	4f#	4d#	4d#	4d#	4aa#	4ff#	4d#	4b	4b	2r	2r	2r
8bb	8bb	4f	4d	4d	4d	8bb	4ff	4d	4b-	4b-	.	.	.
8gg#	8gg#	.	.	.	.	8gg#	.	.	.	.	.	.	.
=132	=132	=132	=132	=132	=132	=132	=132	=132	=132	=132	=132	=132	=132
8aa	8aa	4e	4c#	4c#	4c#	8aa	4ee	4c#	4a	4a	2r	2r	2r
8gg#	8gg#	.	.	.	.	8gg#	.	.	.	.	.	.	.
8aa	8aa	8e-	4c	4c	4c	8aa	4ee-	4c	4r	4r	.	.	.
8ff#	8ff#	8ee-	.	.	.	8ff#	.	.	.	.	.	.	.
=133	=133	=133	=133	=133	=133	=133	=133	=133	=133	=133	=133	=133	=133
4.gg	4.gg	8dd	8B	8B	8B	4gg	8dd	8B	2r	2r	2r	2r	2r
.	.	8cc	8A	8A	8A	.	8cc	8A	.	.	.	.	.
.	.	8dd	8B	8B	8B	8r	8dd	8B	.	.	.	.	.
8gg	8gg	8b	8G	8G	8G	8gg	8b	8G	.	.	.	.	.
=134	=134	=134	=134	=134	=134	=134	=134	=134	=134	=134	=134	=134	=134
8ff#	8ff#	8a	4.d	4.d	4.d	8ff#	4a	4.d	2r	2r	2r	2r	2r
8ee	8ee	8g	.	.	.	8ee	.	.	.	.	.	.	.
8ff#	8ff#	8a	.	.	.	8ff#	8r	.	.	.	.	.	.
8dd	8dd	8f#	8d	8d	8d	8dd	8a	8d	.	.	.	.	.
=135	=135	=135	=135	=135	=135	=135	=135	=135	=135	=135	=135	=135	=135
4.aa	4.aa	8e	8c	8c	8c	4aa	8ee	8c	2r	2r	2r	2r	2r
.	.	8d	8B	8B	8B	.	8dd	8B	.	.	.	.	.
.	.	8e	8c	8c	8c	8r	8ee	8c	.	.	.	.	.
8aa	8aa	8cc	8A	8A	8A	8aa	8cc	8A	.	.	.	.	.
=136	=136	=136	=136	=136	=136	=136	=136	=136	=136	=136	=136	=136	=136
8gg	8gg	8b	4.e	4.e	4.e	8gg	4b	4.e	2r	2r	2r	2r	2r
8ff#	8ff#	8a	.	.	.	8ff#	.	.	.	.	.	.	.
8gg	8gg	8b	.	.	.	8gg	8r	.	.	.	.	.	.
8ee	8ee	8g	8e	8e	8e	8ee	8b	8e	.	.	.	.	.
=137	=137	=137	=137	=137	=137	=137	=137	=137	=137	=137	=137	=137	=137
4bb	4.bb	8f#	8d	8d	8d	4bb	8ff#	8d	2r	2r	2r	2r	2r
.	.	8e	8c#	8c#	8c#	.	8ee	8c#	.	.	.	.	.
4r	.	8f#	8d	8d	8d	8r	8ff#	8d	.	.	.	.	.
.	8bb	8dd	8B	8B	8B	8bb	8dd	8B	.	.	.	.	.
=138	=138	=138	=138	=138	=138	=138	=138	=138	=138	=138	=138	=138	=138
2r	8aa#	4cc#	4f#	4f#	4f#	8aa#	8cc#	4f#	2r	2r	2r	2r	2r
.	8gg#	.	.	.	.	8gg#	4r	.	.	.	.	.	.
.	8aa#	8r	4r	4r	4r	8aa#	.	4r	.	.	.	.	.
.	8ff#	8f#	.	.	.	8ff#	8f#	.	.	.	.	.	.
=139	=139	=139	=139	=139	=139	=139	=139	=139	=139	=139	=139	=139	=139
2r	4ddd	8b	2r	2r	2r	4ddd	8b	2r	2r	2r	2r	2r	2r
.	.	8cc#	.	.	.	.	8cc#	.	.	.	.	.	.
.	4bb	8dd	.	.	.	4bb	8dd	.	.	.	.	.	.
.	.	8ee	.	.	.	.	8ee	.	.	.	.	.	.
=140	=140	=140	=140	=140	=140	=140	=140	=140	=140	=140	=140	=140	=140
2r	4aa#	4ee#	4r	4r	2r	4aa#	4ee#	2r	2r	2r	2r	2r	2r
.	4aa	8ff#	4B	4B	.	4aa	8ff#	.	.	.	.	.	.
.	.	8dd#	.	.	.	.	8dd#	.	.	.	.	.	.
=141	=141	=141	=141	=141	=141	=141	=141	=141	=141	=141	=141	=141	=141
2r	4gg#	8ee	4e	4e	2r	4gg#	8ee	2r	2r	2r	2r	2r	2r
.	.	8dd#	.	.	.	.	8dd#	.	.	.	.	.	.
.	4gg	8ee	4A	4A	.	4gg	8ee	.	.	.	.	.	.
.	.	8cc#	.	.	.	.	8cc#	.	.	.	.	.	.
=142	=142	=142	=142	=142	=142	=142	=142	=142	=142	=142	=142	=142	=142
2r	8ff#	4.dd	4.d	4.d	2r	8ff#	4.dd	2r	2r	2r	2r	2r	2r
.	8ee	.	.	.	.	8ee	.	.	.	.	.	.	.
.	8ff#	.	.	.	.	8ff#	.	.	.	.	.	.	.
.	8dd	8b	8g	8g	.	8dd	8b	.	.	.	.	.	.
=143	=143	=143	=143	=143	=143	=143	=143	=143	=143	=143	=143	=143	=143
2r	8ee	8cc#	4c#	4c#	2r	8ee	8cc#	2r	2r	2r	2r	2r	2r
.	8dd	8b	.	.	.	8dd	8b	.	.	.	.	.	.
.	8ee	8cc#	4F#	4F#	.	8ee	8cc#	.	.	.	.	.	.
.	8ff#	8a#	.	.	.	8ff#	8a#	.	.	.	.	.	.
=144	=144	=144	=144	=144	=144	=144	=144	=144	=144	=144	=144	=144	=144
2r	8dd	8b	2B	4B	4.r	8dd	8b	4.r	2ee	2e	2r	2r	2r
.	8ff#	8cc#	.	.	.	8ff#	8cc#	.	.	.	.	.	.
.	8bb	8dd	.	8r	.	8bb	8dd	.	.	.	.	.	.
.	8aa	8dd#	.	8BB	8BB	8aa	8dd#	8BB	.	.	.	.	.
=145	=145	=145	=145	=145	=145	=145	=145	=145	=145	=145	=145	=145	=145
2eee	4gg	4ee	8e	8E	8E	4gg	4ee	8E	4cc	4c	2r	2r	2r
.	.	.	8f#	8F#	8F#	.	.	8F#	.	.	.	.	.
.	4eee	4gg	8g	8G	8G	4r	4r	8G	4r	4r	.	.	.
.	.	.	8a	8A	8A	.	.	8A	.	.	.	.	.
=146	=146	=146	=146	=146	=146	=146	=146	=146	=146	=146	=146	=146	=146
4ddd#	4ddd#	4ff#	4a#	4A#	4A#	2r	2r	4A#	2r	2r	2r	2r	2r
4ddd	4ddd	4ff	8b	8B	8B	.	.	8B	.	.	.	.	.
.	.	.	8g#	8G#	8G#	.	.	8G#	.	.	.	.	.
=147	=147	=147	=147	=147	=147	=147	=147	=147	=147	=147	=147	=147	=147
4ccc#	4ccc#	4ee	8a	8A	8A	2r	2r	8A	2r	2r	2r	2r	2r
.	.	.	8g#	8G#	8G#	.	.	8G#	.	.	.	.	.
4ccc	4ccc	4dd#	8a	8A	8A	.	.	8A	.	.	.	.	.
.	.	.	8f#	8F#	8F#	.	.	8F#	.	.	.	.	.
=148	=148	=148	=148	=148	=148	=148	=148	=148	=148	=148	=148	=148	=148
8bb	8bb	[2ee	8g	8G	8G	2r	2r	8G	2r	2r	2r	2r	2r
8aa	8aa	.	8f#	8F#	8F#	.	.	8F#	.	.	.	.	.
8bb	8bb	.	8g	8G	8G	.	.	8G	.	.	.	.	.
8ccc	8ccc	.	8e	8E	8E	.	.	8E	.	.	.	.	.
=149	=149	=149	=149	=149	=149	=149	=149	=149	=149	=149	=149	=149	=149
8aa	8aa	4ee]	8f#	8F#	8F#	2r	2r	8F#	2r	2r	2r	2r	2r
8gg#	8gg#	.	8e	8E	8E	.	.	8E	.	.	.	.	.
8aa	8aa	4dd#	8f#	8F#	8F#	.	.	8F#	.	.	.	.	.
8bb	8bb	.	8B	8BB	8BB	.	.	8BB	.	.	.	.	.
=150	=150	=150	=150	=150	=150	=150	=150	=150	=150	=150	=150	=150	=150
4.gg#	4.gg#	8dd	4e	4E	4E	2r	2r	4E	2r	2r	2r	2r	2r
.	.	8cc#	.	.	.	.	.	.	.	.	.	.	.
.	.	8dd	8r	8r	4r	.	.	4r	.	.	.	.	.
16ff#	16ff#	8ee	8E	8E	.	.	.	.	.	.	.	.	.
16gg#	16gg#	.	.	.	.	.	.	.	.	.	.	.	.
=151	=151	=151	=151	=151	=151	=151	=151	=151	=151	=151	=151	=151	=151
4aa	4aa	4cc	8A	8A	2r	2ccc	2aa	2r	2r	2r	2r	2r	2r
.	.	.	8B	8B	.	.	.	.	.	.	.	.	.
4r	4aa	4cc	8c	8c	.	.	.	.	.	.	.	.	.
.	.	.	8d	8d	.	.	.	.	.	.	.	.	.
=152	=152	=152	=152	=152	=152	=152	=152	=152	=152	=152	=152	=152	=152
2r	4gg#	4b	4d#	4d#	2r	4bb	4gg#	2r	2r	2r	2r	2r	2r
.	4gg	4b-	8e	8e	.	4bb-	4gg	.	.	.	.	.	.
.	.	.	8c#	8c#	.	.	.	.	.	.	.	.	.
=153	=153	=153	=153	=153	=153	=153	=153	=153	=153	=153	=153	=153	=153
2r	4ff#	4a	8d	8d	2r	4aa	4ff#	2r	2r	2r	2r	2r	2r
.	.	.	8c#	8c#	.	.	.	.	.	.	.	.	.
.	4ff	4g#	8d	8d	.	4gg#	4ff	.	.	.	.	.	.
.	.	.	8B	8B	.	.	.	.	.	.	.	.	.
=154	=154	=154	=154	=154	=154	=154	=154	=154	=154	=154	=154	=154	=154
2r	4.ee	[2a	8c	8c	2r	[2aa	4.ee	2r	2r	2r	2r	2r	2r
.	.	.	8B	8B	.	.	.	.	.	.	.	.	.
.	.	.	8c	8c	.	.	.	.	.	.	.	.	.
.	8ff	.	8A	8A	.	.	8ff	.	.	.	.	.	.
=155	=155	=155	=155	=155	=155	=155	=155	=155	=155	=155	=155	=155	=155
2r	8dd	4a]	4B	4B	2r	4aa]	8dd	2r	2r	2r	2r	2r	2r
.	8cc#	.	.	.	.	.	8cc#	.	.	.	.	.	.
.	8dd	4g#	4e	4e	.	4gg#	8dd	.	.	.	.	.	.
.	8ee	.	.	.	.	.	8ee	.	.	.	.	.	.
=156	=156	=156	=156	=156	=156	=156	=156	=156	=156	=156	=156	=156	=156
2r	2cc#	8g	2A	2A	2r	8gg	2cc#	2r	2r	2r	2r	2r	2r
.	.	8f#	.	.	.	8ff#	.	.	.	.	.	.	.
.	.	8g	.	.	.	8gg	.	.	.	.	.	.	.
.	.	8a	.	.	.	8aa	.	.	.	.	.	.	.
=157	=157	=157	=157	=157	=157	=157	=157	=157	=157	=157	=157	=157	=157
2r	8cc	2f#	2d	4.d	4.r	2ff#	8cc	4.r	2dd	2g	2dd	2dd	4D
.	8b	.	.	.	.	.	8b	.	.	.	.	.	.
.	8cc	.	.	.	.	.	8cc	.	.	.	.	.	4r
.	8dd	.	.	8D	8D	.	8dd	8D	.	.	.	.	.
=158	=158	=158	=158	=158	=158	=158	=158	=158	=158	=158	=158	=158	=158
4r	4b	8b	8G	8G	8G	4gg	4b	8G	4ee	4cc	4dd	4g	4GG
.	.	8cc	8A	8A	8A	.	.	8A	.	.	.	.	.
[4gg	[4gg	8dd	8B	8B	8B	4r	4r	8B	4r	4r	4r	4r	4r
.	.	8ee	8c	8c	8c	.	.	8c	.	.	.	.	.
=159	=159	=159	=159	=159	=159	=159	=159	=159	=159	=159	=159	=159	=159
8gg]	8gg]	8a	4c#	4c#	4c#	2r	2r	4c#	2r	2r	2r	2r	2r
8ee	8ee	8b-	.	.	.	.	.	.	.	.	.	.	.
8ff#	8ff#	8a	8d	8d	8d	.	.	8d	.	.	.	.	.
8gg#	8gg#	8dd	8B	8B	8B	.	.	8B	.	.	.	.	.
=160	=160	=160	=160	=160	=160	=160	=160	=160	=160	=160	=160	=160	=160
[2aa	[2aa	8cc	8A	8A	8A	2r	2r	8A	2r	2r	2r	2r	2r
.	.	8dd	8B	8B	8B	.	.	8B	.	.	.	.	.
.	.	8ee	8c	8c	8c	.	.	8c	.	.	.	.	.
.	.	8ff	8d	8d	8d	.	.	8d	.	.	.	.	.
=161	=161	=161	=161	=161	=161	=161	=161	=161	=161	=161	=161	=161	=161
8aa]	8aa]	8b	4d#	4d#	4d#	2r	2r	4d#	2r	2r	2r	2r	2r
8ff#	8ff#	8cc	.	.	.	.	.	.	.	.	.	.	.
8gg	8gg	8b	8e	8e	8e	.	.	8e	.	.	.	.	.
8aa#	8aa#	8ee	8c#	8c#	8c#	.	.	8c#	.	.	.	.	.
=162	=162	=162	=162	=162	=162	=162	=162	=162	=162	=162	=162	=162	=162
[2bb	[2bb	8dd	8B	8B	8B	2r	2r	8B	2r	2r	2r	2r	2r
.	.	8ee	8c#	8c#	8c#	.	.	8c#	.	.	.	.	.
.	.	8ff#	8d	8d	8d	.	.	8d	.	.	.	.	.
.	.	8gg	8e	8e	8e	.	.	8e	.	.	.	.	.
=163	=163	=163	=163	=163	=163	=163	=163	=163	=163	=163	=163	=163	=163
4bb]	4bb]	8cc#	4e#	4e#	4e#	4r	4r	4e#	2r	2r	2r	2r	2r
.	.	8dd	.	.	.	.	.	.	.	.	.	.	.
8aa#	8aa#	8cc#	8f#	4f#	4f#	4cc#	4a#	4f#	.	.	.	.	.
8ff#	8ff#	8cc#	8a#	.	.	.	.	.	.	.	.	.	.
=164	=164	=164	=164	=164	=164	=164	=164	=164	=164	=164	=164	=164	=164
8gg	8gg	4.dd	4.b	[2f#	2r	4.dd	4.b	[2f#	2r	2r	2r	2r	2r
8ff#	8ff#	.	.	.	.	.	.	.	.	.	.	.	.
8gg	8gg	.	.	.	.	.	.	.	.	.	.	.	.
8ee	8ee	8ee	8cc#	.	.	8ee	8cc#	.	.	.	.	.	.
=165	=165	=165	=165	=165	=165	=165	=165	=165	=165	=165	=165	=165	=165
4ff#	4ff#	4cc#	4a#	2f#_	2r	4cc#	4a#	2f#_	2r	2r	2r	2r	2r
8dd	8dd	4dd	4b	.	.	4dd	4b	.	.	.	.	.	.
8dd	8dd	.	.	.	.	.	.	.	.	.	.	.	.
=166	=166	=166	=166	=166	=166	=166	=166	=166	=166	=166	=166	=166	=166
8ee	8ee	4.b	4.g#	2f#]	2r	4.b	4.g#	2f#_	2r	2r	2r	2r	2r
8dd	8dd	.	.	.	.	.	.	.	.	.	.	.	.
8ee	8ee	.	.	.	.	.	.	.	.	.	.	.	.
8cc#	8cc#	8cc#	8a#	.	.	8cc#	8a#	.	.	.	.	.	.
=167	=167	=167	=167	=167	=167	=167	=167	=167	=167	=167	=167	=167	=167
4dd#	16dd#	16a	16f#	8B	8B	4dd#	4b	4f#]	4ee	4e	2r	2r	2r
.	16dd#	16a	16f#	.	.	.	.	.	.	.	.	.	.
.	16dd#	16a	16f#	8B	8B	.	.	.	.	.	.	.	.
.	16dd#	16a	16f#	.	.	.	.	.	.	.	.	.	.
4ee	16ee	16g	16e	8c	8c	4ee	4g	4e	4cc	4c	.	.	.
.	16ee	16g	16e	.	.	.	.	.	.	.	.	.	.
.	16ee	16g	16e	8c	8c	.	.	.	.	.	.	.	.
.	16ee	16g	16e	.	.	.	.	.	.	.	.	.	.
=168	=168	=168	=168	=168	=168	=168	=168	=168	=168	=168	=168	=168	=168
4dd#	16dd#	16a	16f#	8B	8B	4dd#	4a	4f#	4ee	4e	2r	2r	2r
.	16dd#	16a	16f#	.	.	.	.	.	.	.	.	.	.
.	16dd#	16a	16f#	8B	8B	.	.	.	.	.	.	.	.
.	16dd#	16a	16f#	.	.	.	.	.	.	.	.	.	.
4r	16aa	16dd#	16b	8BB	8BB	4r	4r	4r	4r	4r	.	.	.
.	16aa	16dd#	16b	.	.	.	.	.	.	.	.	.	.
.	16aa	16dd#	16b	8BB	8BB	.	.	.	.	.	.	.	.
.	16aa	16dd#	16b	.	.	.	.	.	.	.	.	.	.
=169	=169	=169	=169	=169	=169	=169	=169	=169	=169	=169	=169	=169	=169
4bb	16gg#	16dd	16b	8e	8e	4gg#	4dd	4e	4ee	4ee	4dd	4dd	2r
.	16gg#	16dd	16b	.	.	.	.	.	.	.	.	.	.
.	16gg#	16dd	16b	8e	8e	.	.	.	.	.	.	.	.
.	16gg#	16dd	16b	.	.	.	.	.	.	.	.	.	.
4aa	16aa	16cc	16a	8f	8f	4aa	4cc	4f	4dd	4dd	4cc	4cc	.
.	16aa	16cc	16a	.	.	.	.	.	.	.	.	.	.
.	16aa	16cc	16a	8f	8f	.	.	.	.	.	.	.	.
.	16aa	16cc	16a	.	.	.	.	.	.	.	.	.	.
=170	=170	=170	=170	=170	=170	=170	=170	=170	=170	=170	=170	=170	=170
4bb	16gg#	16dd	16b	8e	8e	4gg#	4dd	4e	4ee	4ee	4dd	4dd	2r
.	16gg#	16dd	16b	.	.	.	.	.	.	.	.	.	.
.	16gg#	16dd	16b	8e	8e	.	.	.	.	.	.	.	.
.	16gg#	16dd	16b	.	.	.	.	.	.	.	.	.	.
4r	16ddd	16g#	16e	8E	8E	4r	4r	4r	4r	4r	4r	4r	.
.	16ddd	16g#	16e	.	.	.	.	.	.	.	.	.	.
.	16ddd	16g#	16e	8E	8E	.	.	.	.	.	.	.	.
.	16ddd	16g#	16e	.	.	.	.	.	.	.	.	.	.
=171	=171	=171	=171	=171	=171	=171	=171	=171	=171	=171	=171	=171	=171
4ccc#	16ccc#	16g	16e	8A	8A	4gg	4cc#	4e	4cc	4c	4g	4g	2r
.	16ccc#	16g	16e	.	.	.	.	.	.	.	.	.	.
.	16ccc#	16g	16e	8A	8A	.	.	.	.	.	.	.	.
.	16ccc#	16g	16e	.	.	.	.	.	.	.	.	.	.
4ddd	16ddd	16f	16d	8B-	8B-	4ff	4dd	4d	4g	4G	4dd	4dd	.
.	16ddd	16f	16d	.	.	.	.	.	.	.	.	.	.
.	16ddd	16f	16d	8B-	8B-	.	.	.	.	.	.	.	.
.	16ddd	16f	16d	.	.	.	.	.	.	.	.	.	.
=172	=172	=172	=172	=172	=172	=172	=172	=172	=172	=172	=172	=172	=172
4ccc#	16ccc#	16g	16e	8A	8A	4gg	4cc#	4e	4cc	4c	4g	4g	2r
.	16ccc#	16g	16e	.	.	.	.	.	.	.	.	.	.
.	16ccc#	16g	16e	8A	8A	.	.	.	.	.	.	.	.
.	16ccc#	16g	16e	.	.	.	.	.	.	.	.	.	.
4r	16gg	16cc#	16a	8AA	8AA	4r	4r	4r	4r	4r	4r	4r	.
.	16gg	16cc#	16a	.	.	.	.	.	.	.	.	.	.
.	16gg	16cc#	16a	8AA	8AA	.	.	.	.	.	.	.	.
.	16gg	16cc#	16a	.	.	.	.	.	.	.	.	.	.
=173	=173	=173	=173	=173	=173	=173	=173	=173	=173	=173	=173	=173	=173
4aa	16ff#	16cc	16a	8d	8d	4ff#	4cc	4d	4g	4G	4cc	4cc	2r
.	16ff#	16cc	16a	.	.	.	.	.	.	.	.	.	.
.	16ff#	16cc	16a	8d	8d	.	.	.	.	.	.	.	.
.	16ff#	16cc	16a	.	.	.	.	.	.	.	.	.	.
4gg	16gg	16b-	16g	8e-	8e-	4gg	4b-	4e-	4cc	4c	4g	4g	.
.	16gg	16b-	16g	.	.	.	.	.	.	.	.	.	.
.	16gg	16b-	16g	8e-	8e-	.	.	.	.	.	.	.	.
.	16gg	16b-	16g	.	.	.	.	.	.	.	.	.	.
=174	=174	=174	=174	=174	=174	=174	=174	=174	=174	=174	=174	=174	=174
4aa	16ff#	16cc	16a	8d	8d	4ff#	4cc	4d	2dd	2g	4cc	4cc	2r
.	16ff#	16cc	16a	.	.	.	.	.	.	.	.	.	.
.	16ff#	16cc	16a	8d	8d	.	.	.	.	.	.	.	.
.	16ff#	16cc	16a	.	.	.	.	.	.	.	.	.	.
4r	16ccc	16f#	16d	8D	8D	4r	4r	4r	.	.	4r	4r	.
.	16ccc	16f#	16d	.	.	.	.	.	.	.	.	.	.
.	16ccc	16f#	16d	8D	8D	.	.	.	.	.	.	.	.
.	16ccc	16f#	16d	.	.	.	.	.	.	.	.	.	.
=175	=175	=175	=175	=175	=175	=175	=175	=175	=175	=175	=175	=175	=175
4dd	16bb	16f	16d	8G	8G	4bb	4ff	4G	4cc	4c	4g	4g	2r
.	16bb	16f	16d	.	.	.	.	.	.	.	.	.	.
.	16bb	16f	16d	8G	8G	.	.	.	.	.	.	.	.
.	16bb	16f	16d	.	.	.	.	.	.	.	.	.	.
4cc	16ccc	16e-	16c	8A-	8A-	4ccc	4ee-	4A-	4r	4r	4cc	4cc	.
.	16ccc	16e-	16c	.	.	.	.	.	.	.	.	.	.
.	16ccc	16e-	16c	8A-	8A-	.	.	.	.	.	.	.	.
.	16ccc	16e-	16c	.	.	.	.	.	.	.	.	.	.
=176	=176	=176	=176	=176	=176	=176	=176	=176	=176	=176	=176	=176	=176
4dd	16bb	16f	16d	8G	8G	4bb	4ff	4G	[2cc	[2c	4g	4g	2r
.	16bb	16f	16d	.	.	.	.	.	.	.	.	.	.
.	16bb	16f	16d	8G	8G	.	.	.	.	.	.	.	.
.	16bb	16f	16d	.	.	.	.	.	.	.	.	.	.
4g	16ddd	16f	16G	8BB	8BB	4ddd	4ff	4BB	.	.	4g	4g	.
.	16ddd	16f	16G	.	.	.	.	.	.	.	.	.	.
.	16ddd	16f	16G	8BB	8BB	.	.	.	.	.	.	.	.
.	16ddd	16f	16G	.	.	.	.	.	.	.	.	.	.
=177	=177	=177	=177	=177	=177	=177	=177	=177	=177	=177	=177	=177	=177
4cc	4gg	8e	8c	4C	4C	4ccc	4ee	4C	4cc]	4c]	4cc	4e	2r
.	.	8G	8e	.	.	.	.	.	.	.	.	.	.
4r	4r	8e	8c	4r	4r	4r	4r	4r	4r	4r	4r	4r	.
.	.	8G	8e	.	.	.	.	.	.	.	.	.	.
=178	=178	=178	=178	=178	=178	=178	=178	=178	=178	=178	=178	=178	=178
2r	8r	8c	8c	2r	2r	2r	2r	2r	2r	2r	2r	2r	2r
.	8gg	8G	8e	.	.	.	.	.	.	.	.	.	.
.	8gg	8e	8c	.	.	.	.	.	.	.	.	.	.
.	8gg	8G	8e	.	.	.	.	.	.	.	.	.	.
=179	=179	=179	=179	=179	=179	=179	=179	=179	=179	=179	=179	=179	=179
2r	8gg	8d	8B	4BB	4BB	2r	2r	2r	2r	2r	2r	2r	2r
.	8ff#	8G	8d	.	.	.	.	.	.	.	.	.	.
.	8ff	8f	8B	4r	4r	.	.	.	.	.	.	.	.
.	8dd	8G	8d	.	.	.	.	.	.	.	.	.	.
=180	=180	=180	=180	=180	=180	=180	=180	=180	=180	=180	=180	=180	=180
2r	8b	8d	8B	2r	2r	2r	2r	2r	2r	2r	2r	2r	2r
.	8g	8G	8d	.	.	.	.	.	.	.	.	.	.
.	8f	8f	8B	.	.	.	.	.	.	.	.	.	.
.	8d	8G	8d	.	.	.	.	.	.	.	.	.	.
=181	=181	=181	=181	=181	=181	=181	=181	=181	=181	=181	=181	=181	=181
2r	8c	8e	8c	4C	4C	2r	2r	2r	2r	2r	[2cc	[2e	2r
.	8cc	8G	8e	.	.	.	.	.	.	.	.	.	.
.	8e	8g	8c	4r	4r	.	.	.	.	.	.	.	.
.	8ee	8G	8e	.	.	.	.	.	.	.	.	.	.
=182	=182	=182	=182	=182	=182	=182	=182	=182	=182	=182	=182	=182	=182
2r	8g	8e	8c	2r	2r	2r	2r	2r	2r	2r	2cc]	2e]	2r
.	8gg	8G	8e	.	.	.	.	.	.	.	.	.	.
.	8gg	8e	8c	.	.	.	.	.	.	.	.	.	.
.	8gg	8G	8e	.	.	.	.	.	.	.	.	.	.
=183	=183	=183	=183	=183	=183	=183	=183	=183	=183	=183	=183	=183	=183
2r	8gg	8d	8B	4BB	4BB	2r	2r	2r	2r	2r	[2dd	[2g	2r
.	8ff#	8G	8d	.	.	.	.	.	.	.	.	.	.
.	8ff	8f	8B	4r	4r	.	.	.	.	.	.	.	.
.	8dd	8G	8d	.	.	.	.	.	.	.	.	.	.
=184	=184	=184	=184	=184	=184	=184	=184	=184	=184	=184	=184	=184	=184
8r	8b	8d	8B	2r	2r	2r	2r	2r	2r	2r	2dd]	2g]	2r
8bb	8g	8G	8d	.	.	.	.	.	.	.	.	.	.
8bb	8f	8f	8B	.	.	.	.	.	.	.	.	.	.
8bb	8d	8G	8d	.	.	.	.	.	.	.	.	.	.
=185	=185	=185	=185	=185	=185	=185	=185	=185	=185	=185	=185	=185	=185
8bb	8c	8e	8c	4C	4C	2r	2r	2r	2r	2r	2ee	2cc	2r
8ccc	8cc	8G	8e	.	.	.	.	.	.	.	.	.	.
8gg	8e	8e	8c	4r	4r	.	.	.	.	.	.	.	.
8ee	8ee	8G	8e	.	.	.	.	.	.	.	.	.	.
=186	=186	=186	=186	=186	=186	=186	=186	=186	=186	=186	=186	=186	=186
4cc	8g	8e	8c	2r	2r	2r	2r	2r	2r	2r	2r	2r	2r
.	8gg	8G	8e	.	.	.	.	.	.	.	.	.	.
4r	8gg	8e	8c	.	.	.	.	.	.	.	.	.	.
.	8gg	8G	8e	.	.	.	.	.	.	.	.	.	.
=187	=187	=187	=187	=187	=187	=187	=187	=187	=187	=187	=187	=187	=187
2r	8gg	8e	8c#	4C#	4C#	2r	2r	2r	2r	2r	2r	2r	2r
.	8ee	8A	8e	.	.	.	.	.	.	.	.	.	.
.	8cc#	8g	8c#	4r	4r	.	.	.	.	.	.	.	.
.	8a	8A	8e	.	.	.	.	.	.	.	.	.	.
=188	=188	=188	=188	=188	=188	=188	=188	=188	=188	=188	=188	=188	=188
8r	8g	8e	8c#	2r	2r	2r	2r	2r	2r	2r	2r	2r	2r
8ccc#	8e	8A	8e	.	.	.	.	.	.	.	.	.	.
8ccc#	8c#	8g	8c#	.	.	.	.	.	.	.	.	.	.
8ccc#	8A	8A	8e	.	.	.	.	.	.	.	.	.	.
=189	=189	=189	=189	=189	=189	=189	=189	=189	=189	=189	=189	=189	=189
8ccc#	8d	8f#	8d	4D	4D	2r	2r	2r	2r	2r	2r	2r	2r
8ddd	8dd	8A	8f#	.	.	.	.	.	.	.	.	.	.
8aa	8f#	8a	8d	4r	4r	.	.	.	.	.	.	.	.
8ff#	8ff#	8A	8f#	.	.	.	.	.	.	.	.	.	.
=190	=190	=190	=190	=190	=190	=190	=190	=190	=190	=190	=190	=190	=190
4dd	8a	8f#	8d	2r	2r	2r	2r	2r	2r	2r	2r	2r	2r
.	8aa	8A	8f#	.	.	.	.	.	.	.	.	.	.
4r	8aa	8f#	8d	.	.	.	.	.	.	.	.	.	.
.	8aa	8A	8f#	.	.	.	.	.	.	.	.	.	.
=191	=191	=191	=191	=191	=191	=191	=191	=191	=191	=191	=191	=191	=191
2r	8aa	8f#	8d#	4D#	4D#	2r	2r	2r	2r	2r	2r	2r	2r
.	8ff#	8B	8f#	.	.	.	.	.	.	.	.	.	.
.	8dd#	8a	8d#	4r	4r	.	.	.	.	.	.	.	.
.	8b	8B	8f#	.	.	.	.	.	.	.	.	.	.
=192	=192	=192	=192	=192	=192	=192	=192	=192	=192	=192	=192	=192	=192
8r	8a	8f#	8d#	2r	2r	2r	2r	2r	2r	2r	2r	2r	2r
8ddd#	8f#	8B	8f#	.	.	.	.	.	.	.	.	.	.
8ddd#	8d#	8a	8d#	.	.	.	.	.	.	.	.	.	.
8ddd#	8B	8B	8f#	.	.	.	.	.	.	.	.	.	.
=193	=193	=193	=193	=193	=193	=193	=193	=193	=193	=193	=193	=193	=193
8ddd#	8e	8g	8e	4E	4E	2r	2r	2r	2r	2r	2r	2r	2r
8eee	8ee	8B	8g	.	.	.	.	.	.	.	.	.	.
8bb	8g	8g	8e	4r	4r	.	.	.	.	.	.	.	.
8gg	8gg	8B	8g	.	.	.	.	.	.	.	.	.	.
=194	=194	=194	=194	=194	=194	=194	=194	=194	=194	=194	=194	=194	=194
4ee	8b	8g	8e	2r	2r	2r	2r	2r	2r	2r	2r	2r	2r
.	8bb	8B	8g	.	.	.	.	.	.	.	.	.	.
4r	8bb	8g	8e	.	.	.	.	.	.	.	.	.	.
.	8bb	8B	8g	.	.	.	.	.	.	.	.	.	.
=195	=195	=195	=195	=195	=195	=195	=195	=195	=195	=195	=195	=195	=195
2r	8bb	2f# 2B	2d#	2D#	2D#	2ff#	[2b	2d#	[2ee	[2e	2r	2r	2r
.	8aa	.	.	.	.	.	.	.	.	.	.	.	.
.	8ff#	.	.	.	.	.	.	.	.	.	.	.	.
.	8aa	.	.	.	.	.	.	.	.	.	.	.	.
=196	=196	=196	=196	=196	=196	=196	=196	=196	=196	=196	=196	=196	=196
8bb	4gg	4B 4g	4e	4E	4E	8gg	4b]	2e	2ee_	2e_	2r	2r	2r
8eee	.	.	.	.	.	8ee	.	.	.	.	.	.	.
8bb	8r	4r	4r	4r	4r	8b	8g	.	.	.	.	.	.
8gg	8bb	.	.	.	.	8gg	8b	.	.	.	.	.	.
=197	=197	=197	=197	=197	=197	=197	=197	=197	=197	=197	=197	=197	=197
4ff#	8bb	2b 2ff#	2d#	2d#	2d#	2ff#	[2b	2d#	2ee_	2e_	2r	2r	2r
.	8aa	.	.	.	.	.	.	.	.	.	.	.	.
4r	8ff#	.	.	.	.	.	.	.	.	.	.	.	.
.	8aa	.	.	.	.	.	.	.	.	.	.	.	.
=198	=198	=198	=198	=198	=198	=198	=198	=198	=198	=198	=198	=198	=198
8bb	4gg	4gg 4b	4e	4e	4e	8gg	4b]	2e	2ee]	2e]	2r	2r	2r
8eee	.	.	.	.	.	8ee	.	.	.	.	.	.	.
8bb	8r	4r	4r	4r	4r	8b	8g	.	.	.	.	.	.
8gg	8gg	.	.	.	.	8gg	8b	.	.	.	.	.	.
=199	=199	=199	=199	=199	=199	=199	=199	=199	=199	=199	=199	=199	=199
4ff	8gg	2g 2dd	2b	2B	2B	2ff	2dd	2B	[2cc	[2c	2dd	2g	4GG
.	8ff	.	.	.	.	.	.	.	.	.	.	.	.
4r	8dd	.	.	.	.	.	.	.	.	.	.	.	4r
.	8ff	.	.	.	.	.	.	.	.	.	.	.	.
=200	=200	=200	=200	=200	=200	=200	=200	=200	=200	=200	=200	=200	=200
8eee	4ee	4ee 4g	4cc	4c	4c	8ee	8cc	2c	2cc]	2c]	4ee	4cc	4GG
8ccc	.	.	.	.	.	8cc	8g	.	.	.	.	.	.
8gg	8r	4r	4r	4r	4r	8g	8e	.	.	.	4r	4r	4r
8ee	8ee	.	.	.	.	8ee	8cc	.	.	.	.	.	.
=201	=201	=201	=201	=201	=201	=201	=201	=201	=201	=201	=201	=201	=201
4dd	8ee	2e 2b	2g#	2G#	2G#	2dd	2b	2G#	2r	2r	8ee	8e	2r
.	8dd	.	.	.	.	.	.	.	.	.	16ee	16e	.
.	.	.	.	.	.	.	.	.	.	.	16ee	16e	.
4r	8b	.	.	.	.	.	.	.	.	.	8ee	8e	.
.	8dd	.	.	.	.	.	.	.	.	.	8ee	8e	.
=202	=202	=202	=202	=202	=202	=202	=202	=202	=202	=202	=202	=202	=202
8ccc	4cc	4e 4cc	4a	4A	4A	8cc	8a	4A	2r	2r	4ee	4e	2r
8aa	.	.	.	.	.	8a	8e	.	.	.	.	.	.
8ee	8r	8r	8r	8r	8r	8cc	8a	8r	.	.	4r	4r	.
8cc	8ee	8e	8e	8E	8E	8ee	8cc	8E	.	.	.	.	.
=203	=203	=203	=203	=203	=203	=203	=203	=203	=203	=203	=203	=203	=203
4aa	4aa	4a	4a	4A	4A	4aa	4aa	4A	2r	2r	2r	2r	2r
8r	8r	8r	8r	8r	8r	8r	8r	8r	.	.	.	.	.
8ee	8ee	8e	8e	8E	8E	8ee	8ee	8E	.	.	.	.	.
=204	=204	=204	=204	=204	=204	=204	=204	=204	=204	=204	=204	=204	=204
8aa	8aa	8a	8a	8A	8A	8aa	8aa	8A	2r	2r	2r	2r	2r
8ee	8ee	8e	8e	8E	8E	8ee	8ee	8E	.	.	.	.	.
8aa	8aa	8a	8a	8A	8A	8aa	8aa	8A	.	.	.	.	.
8ee	8ee	8e	8e	8E	8E	8ee	8ee	8E	.	.	.	.	.
=205	=205	=205	=205	=205	=205	=205	=205	=205	=205	=205	=205	=205	=205
4aa	4aa	4a	4a	4A	4A	4aa	4a	4A	2r	2r	2r	2r	2r
8r	8r	8r	8r	8r	8r	8r	8r	8r	.	.	.	.	.
8ee	8ee	8e	8e	8E	8E	8ee	8e	8E	.	.	.	.	.
=206	=206	=206	=206	=206	=206	=206	=206	=206	=206	=206	=206	=206	=206
8aa	8aa	8a	8a	8A	8A	8aa	8a	8A	2r	2r	2r	2r	2r
8bb	8bb	8b	8b	8B	8B	8bb	8b	8B	.	.	.	.	.
8ccc	8ccc	8cc	8cc	8c	8c	8ccc	8cc	8c	.	.	.	.	.
8ddd	8ddd	8dd	8dd	8d	8d	8ddd	8dd	8d	.	.	.	.	.
=207	=207	=207	=207	=207	=207	=207	=207	=207	=207	=207	=207	=207	=207
4eee	4eee	4ee	4ee	4e	4e	4eee	4ee	4e	2r	2r	2r	2r	2r
8r	8r	8r	8r	8r	8r	8r	8r	8r	.	.	.	.	.
8e	8e	8e	8e	8E	8E	8e	8e	8E	.	.	.	.	.
=208	=208	=208	=208	=208	=208	=208	=208	=208	=208	=208	=208	=208	=208
8a	8a	8a	8a	8A	8A	8a	8a	8A	2r	2r	2r	2r	2r
8b	8b	8b	8b	8B	8B	8b	8b	8B	.	.	.	.	.
8cc	8cc	8cc	8cc	8c	8c	8cc	8cc	8c	.	.	.	.	.
8dd	8dd	8dd	8dd	8d	8d	8dd	8dd	8d	.	.	.	.	.
=209	=209	=209	=209	=209	=209	=209	=209	=209	=209	=209	=209	=209	=209
4dd#	4dd#	4dd#	4dd#	4d#	4d#	4dd#	4dd#	4d#	2r	2r	2r	2r	2r
8ee	8ee	8ee	8ee	8e	8e	8ee	8ee	8e	.	.	.	.	.
8a	8a	8a	8a	8A	8A	8a	8a	8A	.	.	.	.	.
=210	=210	=210	=210	=210	=210	=210	=210	=210	=210	=210	=210	=210	=210
4dd#	4dd#	4dd#	4dd#	4d#	4d#	4dd#	4dd#	4d#	2r	2r	2r	2r	2r
8ee	8ee	8ee	8ee	8e	8e	8ee	8ee	8e	.	.	.	.	.
8a	8a	8a	8a	8A	8A	8a	8a	8A	.	.	.	.	.
=211	=211	=211	=211	=211	=211	=211	=211	=211	=211	=211	=211	=211	=211
4dd#	4dd#	4dd#	4dd#	4d#	4d#	4dd#	4dd#	4d#	2r	2r	2r	2r	2r
8ee	8ee	8ee	8ee	8e	8e	8ee	8ee	8e	.	.	.	.	.
8dd	8dd	8dd	8dd	8d	8d	8dd	8dd	8d	.	.	.	.	.
=212	=212	=212	=212	=212	=212	=212	=212	=212	=212	=212	=212	=212	=212
8cc	8cc	8cc	8cc	8c	8c	8cc	8cc	8c	2r	2r	2r	2r	2r
8b	8b	8b	8b	8B	8B	8b	8b	8B	.	.	.	.	.
8a	8a	8a	8a	8A	8A	8a	8a	8A	.	.	.	.	.
8g	8g	8g	8g	8G	8G	8g	8g	8G	.	.	.	.	.
=213	=213	=213	=213	=213	=213	=213	=213	=213	=213	=213	=213	=213	=213
4dd	8f#	8f#	8f#	8F#	8F#	4cc	4d	4D	4dd	4g	4dd	4dd	4D
.	8g	8g	8g	8G	8G	.	.	.	.	.	.	.	.
4r	8a	8a	8a	8A	8A	4r	4r	4r	4r	4r	4r	4r	4r
.	8d	8d	8d	8D	8D	.	.	.	.	.	.	.	.
=214	=214	=214	=214	=214	=214	=214	=214	=214	=214	=214	=214	=214	=214
4b	8g	8g	8g	8G	8G	4b	4d	4DD	4ee	4cc	4dd	4dd	4D
.	8a	8a	8a	8A	8A	.	.	.	.	.	.	.	.
4r	8b	8b	8b	8B	8B	4r	4r	4r	4r	4r	4r	4r	4r
.	8d	8d	8d	8D	8D	.	.	.	.	.	.	.	.
=215	=215	=215	=215	=215	=215	=215	=215	=215	=215	=215	=215	=215	=215
4a	8a	8a	8a	8A	8A	4a	4d	4DD	4dd	4g	4dd	4dd	4D
.	8b	8b	8b	8B	8B	.	.	.	.	.	.	.	.
4r	8cc	8cc	8cc	8c	8c	4r	4r	4r	4r	4r	4r	4r	4r
.	8r	8r	8r	8r	8r	.	.	.	.	.	.	.	.
=216	=216	=216	=216	=216	=216	=216	=216	=216	=216	=216	=216	=216	=216
4.r	2r	2r	2r	2r	2r	2r	2r	2r	2r	2r	2r	2r	2r
8dd	.	.	.	.	.	.	.	.	.	.	.	.	.
=217	=217	=217	=217	=217	=217	=217	=217	=217	=217	=217	=217	=217	=217
8ff#	4cc 4d	4a	4d	4D	4D	2r	2r	2r	2r	2r	2r	2r	2r
8gg	.	.	.	.	.	.	.	.	.	.	.	.	.
8aa	4r	4r	4r	4r	4r	.	.	.	.	.	.	.	.
8dd	.	.	.	.	.	.	.	.	.	.	.	.	.
=218	=218	=218	=218	=218	=218	=218	=218	=218	=218	=218	=218	=218	=218
8gg	4b 4d	4g	4d	4D	4D	2r	2r	2r	2r	2r	2r	2r	2r
8aa	.	.	.	.	.	.	.	.	.	.	.	.	.
8bb	4r	4r	4r	4r	4r	.	.	.	.	.	.	.	.
8dd	.	.	.	.	.	.	.	.	.	.	.	.	.
=219	=219	=219	=219	=219	=219	=219	=219	=219	=219	=219	=219	=219	=219
8aa	4a 4d	4f#	4d	4D	4D	2r	2r	2r	2r	2r	2r	2r	2r
8bb	.	.	.	.	.	.	.	.	.	.	.	.	.
8ccc	4r	4r	4r	4r	4r	.	.	.	.	.	.	.	.
8r	.	.	.	.	.	.	.	.	.	.	.	.	.
=220	=220	=220	=220	=220	=220	=220	=220	=220	=220	=220	=220	=220	=220
2r	2r	2r	2r	2r	2r	2r	2r	2r	2r	2r	2r	2r	2r
=221	=221	=221	=221	=221	=221	=221	=221	=221	=221	=221	=221	=221	=221
2r	4.r	2r	2r	2r	2r	2r	2r	2r	2r	2r	2r	2r	2r
.	8d	.	.	.	.	.	.	.	.	.	.	.	.
=222	=222	=222	=222	=222	=222	=222	=222	=222	=222	=222	=222	=222	=222
2r	8g	2r	2r	8GG	2r	2r	2r	2r	2r	2r	2r	2r	2r
.	8a	.	.	8G	.	.	.	.	.	.	.	.	.
.	8b	.	.	8GG	.	.	.	.	.	.	.	.	.
.	8cc	.	.	8G	.	.	.	.	.	.	.	.	.
=223	=223	=223	=223	=223	=223	=223	=223	=223	=223	=223	=223	=223	=223
2r	4cc#	2r	2r	8GG	2r	2r	2r	2r	2r	2r	2r	2r	2r
.	.	.	.	8G	.	.	.	.	.	.	.	.	.
.	8dd	.	.	8GG	.	.	.	.	.	.	.	.	.
.	8dd#	.	.	8G	.	.	.	.	.	.	.	.	.
=224	=224	=224	=224	=224	=224	=224	=224	=224	=224	=224	=224	=224	=224
2r	8ee	2r	2r	8GG	2r	2r	2r	2r	2r	2r	2r	2r	2r
.	8dd#	.	.	8G	.	.	.	.	.	.	.	.	.
.	8ee	.	.	8GG	.	.	.	.	.	.	.	.	.
.	8cc#	.	.	8G	.	.	.	.	.	.	.	.	.
=225	=225	=225	=225	=225	=225	=225	=225	=225	=225	=225	=225	=225	=225
2r	4dd	2r	2r	8GG	2r	2r	2r	2r	2r	2r	2r	2r	2r
.	.	.	.	8G	.	.	.	.	.	.	.	.	.
.	8b	.	.	8GG	.	.	.	.	.	.	.	.	.
.	8b	.	.	8G	.	.	.	.	.	.	.	.	.
=226	=226	=226	=226	=226	=226	=226	=226	=226	=226	=226	=226	=226	=226
2r	8cc	2r	2r	8GG	2r	2r	2r	2r	2r	2r	2r	2r	2r
.	8b	.	.	8G	.	.	.	.	.	.	.	.	.
.	8cc	.	.	8GG	.	.	.	.	.	.	.	.	.
.	8a#	.	.	8G	.	.	.	.	.	.	.	.	.
=227	=227	=227	=227	=227	=227	=227	=227	=227	=227	=227	=227	=227	=227
2r	4b	2r	2r	8GG	2r	2r	2r	2r	2r	2r	2r	2r	2r
.	.	.	.	8G	.	.	.	.	.	.	.	.	.
.	8g	.	.	8GG	.	.	.	.	.	.	.	.	.
.	8d	.	.	8BB	.	.	.	.	.	.	.	.	.
=228	=228	=228	=228	=228	=228	=228	=228	=228	=228	=228	=228	=228	=228
2r	8e	2r	2r	4C	2r	2r	2r	2r	2r	2r	2r	2r	2r
.	8a	.	.	.	.	.	.	.	.	.	.	.	.
.	8A	.	.	4C#	.	.	.	.	.	.	.	.	.
.	8g	.	.	.	.	.	.	.	.	.	.	.	.
=229	=229	=229	=229	=229	=229	=229	=229	=229	=229	=229	=229	=229	=229
4.r	8f#	4.r	2r	4D	2r	2r	2r	2r	2r	2r	2r	2r	2r
.	8dd	.	.	.	.	.	.	.	.	.	.	.	.
.	8d	.	.	4r	.	.	.	.	.	.	.	.	.
8dd	8d	8d	.	.	.	.	.	.	.	.	.	.	.
=230	=230	=230	=230	=230	=230	=230	=230	=230	=230	=230	=230	=230	=230
8gg	8g	8g	2r	2r	2r	2r	2r	8GG	2r	8C	2r	2r	2r
8aa	8a	8f#	.	.	.	.	.	8G	.	8c	.	.	.
8bb	8b	8g	.	.	.	.	.	8GG	.	8C	.	.	.
8ccc	8cc	8a	.	.	.	.	.	8G	.	8c	.	.	.
=231	=231	=231	=231	=231	=231	=231	=231	=231	=231	=231	=231	=231	=231
4ccc#	4cc#	4a#	2r	2r	2r	2r	2r	8GG	2r	8C	2r	2r	2r
.	.	.	.	.	.	.	.	8G	.	8c	.	.	.
8ddd	8dd	8b	.	.	.	.	.	8GG	.	8C	.	.	.
8ddd#	8dd#	8b	.	.	.	.	.	8G	.	8c	.	.	.
=232	=232	=232	=232	=232	=232	=232	=232	=232	=232	=232	=232	=232	=232
8eee	8ee	8cc	2r	2r	2r	2r	2r	8GG	2r	8C	2r	2r	2r
8ddd#	8dd#	8b	.	.	.	.	.	8G	.	8c	.	.	.
8eee	8ee	8cc	.	.	.	.	.	8GG	.	8C	.	.	.
8ccc#	8cc#	8a#	.	.	.	.	.	8G	.	8c	.	.	.
=233	=233	=233	=233	=233	=233	=233	=233	=233	=233	=233	=233	=233	=233
4ddd	4dd	4b	2r	2r	2r	2r	2r	8GG	2r	8C	2r	2r	2r
.	.	.	.	.	.	.	.	8G	.	8c	.	.	.
8bb	8b	8g	.	.	.	.	.	8GG	.	8C	.	.	.
8bb	8b	8g	.	.	.	.	.	8G	.	8c	.	.	.
=234	=234	=234	=234	=234	=234	=234	=234	=234	=234	=234	=234	=234	=234
8ccc	8cc	8a	2r	2r	2r	2r	2r	8GG	2r	8C	2r	2r	2r
8bb	8b	8g#	.	.	.	.	.	8G	.	8c	.	.	.
8ccc	8cc	8a	.	.	.	.	.	8GG	.	8C	.	.	.
8aa	8a	8f#	.	.	.	.	.	8G	.	8c	.	.	.
=235	=235	=235	=235	=235	=235	=235	=235	=235	=235	=235	=235	=235	=235
4bb	4b	4g	2r	2r	2r	2r	2r	8GG	2r	8C	2r	2r	2r
.	.	.	.	.	.	.	.	8G	.	8c	.	.	.
8gg	8g	8B	.	.	.	.	.	8GG	.	8C	.	.	.
8dd	8d	8d	.	.	.	.	.	8G	.	8r	.	.	.
=236	=236	=236	=236	=236	=236	=236	=236	=236	=236	=236	=236	=236	=236
8ee	8e	8e	4c	2r	2r	2r	2r	4C	2r	2r	2r	2r	2r
8aa	8a	8a	.	.	.	.	.	.	.	.	.	.	.
8a	8A	8A	4d	.	.	.	.	4D	.	.	.	.	.
8ff#	8f#	8f#	.	.	.	.	.	.	.	.	.	.	.
=237	=237	=237	=237	=237	=237	=237	=237	=237	=237	=237	=237	=237	=237
4gg	8G	2g 2B	2d	8GG	8GG	2gg	[2dd	8GG	[2g	[2c	2g	2g	4GG
.	8g	.	.	8G	8G	.	.	8G	.	.	.	.	.
8r	8G	.	.	8GG	8GG	.	.	8GG	.	.	.	.	4r
8gg	8gg	.	.	8G	8G	.	.	8G	.	.	.	.	.
=238	=238	=238	=238	=238	=238	=238	=238	=238	=238	=238	=238	=238	=238
8aa	8aa	2cc 2d	4.f#	8GG	8GG	2ff#	2dd_	8GG	2g_	2c_	2dd	2dd	4GG
8gg	8gg	.	.	8G	8G	.	.	8G	.	.	.	.	.
8aa	8aa	.	.	8GG	8GG	.	.	8GG	.	.	.	.	4r
8ff#	8ff#	.	8a	8G	8G	.	.	8G	.	.	.	.	.
=239	=239	=239	=239	=239	=239	=239	=239	=239	=239	=239	=239	=239	=239
8gg	8gg	2b 2d	2g	8GG	8GG	2gg	2dd_	8GG	2g_	2c_	2g	2g	4GG
8bb	8bb	.	.	8G	8G	.	.	8G	.	.	.	.	.
8dd	8dd	.	.	8GG	8GG	.	.	8GG	.	.	.	.	4r
8gg	8gg	.	.	8G	8G	.	.	8G	.	.	.	.	.
=240	=240	=240	=240	=240	=240	=240	=240	=240	=240	=240	=240	=240	=240
8aa	8aa	2c 2f#	[2d	8GG	8GG	8aa	2dd_	8GG	2g_	2c_	8dd	8g	8GG
8gg	8gg	.	.	8G	8G	8gg	.	8G	.	.	16dd	16g	16GG
.	.	.	.	.	.	.	.	.	.	.	16dd	16g	16GG
8aa	8aa	.	.	8GG	8GG	8aa	.	8GG	.	.	8dd	8g	8GG
8ddd	8ddd	.	.	8G	8G	8ddd	.	8G	.	.	8dd	8g	8GG
=241	=241	=241	=241	=241	=241	=241	=241	=241	=241	=241	=241	=241	=241
4gg	4gg	2B 2g	2d]	8GG	8GG	2bb	2dd_	8GG	2g_	2c_	2g	2g	4GG
.	.	.	.	8G	8G	.	.	8G	.	.	.	.	.
8dd	8dd	.	.	8GG	8GG	.	.	8GG	.	.	.	.	4r
8gg	8gg	.	.	8G	8G	.	.	8G	.	.	.	.	.
=242	=242	=242	=242	=242	=242	=242	=242	=242	=242	=242	=242	=242	=242
8aa	8aa	2d 2cc	4.f#	8GG	8GG	2ff#	2dd_	8GG	2g_	2c_	8dd	8g	8GG
8gg	8gg	.	.	8G	8G	.	.	8G	.	.	16dd	16g	16GG
.	.	.	.	.	.	.	.	.	.	.	16dd	16g	16GG
8aa	8aa	.	.	8GG	8GG	.	.	8GG	.	.	8dd	8g	8GG
8ff#	8ff#	.	8a	8G	8G	.	.	8G	.	.	8dd	8g	8GG
=243	=243	=243	=243	=243	=243	=243	=243	=243	=243	=243	=243	=243	=243
8gg	8gg	2d 2b	2g	8GG	8GG	2gg	2dd_	8GG	2g_	2c_	2g	2g	4GG
8bb	8bb	.	.	8G	8G	.	.	8G	.	.	.	.	.
8dd	8dd	.	.	8GG	8GG	.	.	8GG	.	.	.	.	4r
8gg	8gg	.	.	8G	8G	.	.	8G	.	.	.	.	.
=244	=244	=244	=244	=244	=244	=244	=244	=244	=244	=244	=244	=244	=244
8aa	8aa	2f# 2c	[2d	8GG	8GG	8aa	2dd_	8GG	2g_	2c_	8dd	8g	8GG
8gg	8gg	.	.	8G	8G	8gg	.	8G	.	.	16dd	16g	16GG
.	.	.	.	.	.	.	.	.	.	.	16dd	16g	16GG
8aa	8aa	.	.	8GG	8GG	8aa	.	8GG	.	.	8dd	8g	8GG
8ddd	8ddd	.	.	8G	8G	8ddd	.	8G	.	.	8dd	8g	8GG
=245	=245	=245	=245	=245	=245	=245	=245	=245	=245	=245	=245	=245	=245
4gg	4gg	2B 2g	2d]	8GG	8GG	2bb	2dd_	8GG	4g]	4c]	4g	4g	4GG
.	.	.	.	8G	8G	.	.	8G	.	.	.	.	.
8dd	8dd	.	.	8G	8G	.	.	8G	4r	4r	4r	4r	4r
8ddd	8ddd	.	.	8G	8G	.	.	8G	.	.	.	.	.
=246	=246	=246	=246	=246	=246	=246	=246	=246	=246	=246	=246	=246	=246
4aa	4aa	2d 2cc	2a	8FF#	8FF#	2ccc	2dd_	8FF#	2r	2r	2r	2r	2r
.	.	.	.	8F#	8F#	.	.	8F#	.	.	.	.	.
8dd	8dd	.	.	8F#	8F#	.	.	8F#	.	.	.	.	.
8ddd	8ddd	.	.	8F#	8F#	.	.	8F#	.	.	.	.	.
=247	=247	=247	=247	=247	=247	=247	=247	=247	=247	=247	=247	=247	=247
4bb	4bb	2b 2d	2b	8GG	8GG	2bb	2dd_	8GG	2r	2r	2r	2r	2r
.	.	.	.	8G	8G	.	.	8G	.	.	.	.	.
8dd	8dd	.	.	8G	8G	.	.	8G	.	.	.	.	.
8ddd	8ddd	.	.	8G	8G	.	.	8G	.	.	.	.	.
=248	=248	=248	=248	=248	=248	=248	=248	=248	=248	=248	=248	=248	=248
8ff#	8ff#	2cc 2d	2f#	8AA	8AA	2ff#	2dd_	8AA	2r	2r	4dd	4dd	4D
8ddd	8ddd	.	.	8A	8A	.	.	8A	.	.	.	.	.
8dd	8dd	.	.	8A	8A	.	.	8A	.	.	8dd	8dd	4r
8ddd	8ddd	.	.	8A	8A	.	.	8A	.	.	8dd	8dd	.
=249	=249	=249	=249	=249	=249	=249	=249	=249	=249	=249	=249	=249	=249
8gg	8gg	2d 2b-	2g	8BB-	8BB-	2gg	2dd_	8BB-	2cc	2c	[2dd	[2dd	4GG
8ddd	8ddd	.	.	8B-	8B-	.	.	8B-	.	.	.	.	.
8dd	8dd	.	.	8B-	8B-	.	.	8B-	.	.	.	.	4r
8ddd	8ddd	.	.	8B-	8B-	.	.	8B-	.	.	.	.	.
=250	=250	=250	=250	=250	=250	=250	=250	=250	=250	=250	=250	=250	=250
8aa	16aa	4d 4cc	2a	8FF#	8FF#	2aa	2dd_	8FF#	2dd	2g	2dd]	2dd]	4D
.	16aa	.	.	.	.	.	.	.	.	.	.	.	.
8ddd	16ddd	.	.	8F#	8F#	.	.	8F#	.	.	.	.	.
.	16ddd	.	.	.	.	.	.	.	.	.	.	.	.
8dd	16dd	4a 4d	.	8F#	8F#	.	.	8F#	.	.	.	.	4r
.	16dd	.	.	.	.	.	.	.	.	.	.	.	.
8ccc	16ccc	.	.	8F#	8F#	.	.	8F#	.	.	.	.	.
.	16ccc	.	.	.	.	.	.	.	.	.	.	.	.
=251	=251	=251	=251	=251	=251	=251	=251	=251	=251	=251	=251	=251	=251
4bb-	16bb-	2d	4g	8G	8G	4bb-	4dd]	8G	4cc	4c	4dd	4g	4GG
.	16bb-	.	.	.	.	.	.	.	.	.	.	.	.
.	16aa	.	.	8F#	8F#	.	.	8F#	.	.	.	.	.
.	16aa	.	.	.	.	.	.	.	.	.	.	.	.
4r	16bb-	.	4r	8G	8G	8r	8r	8G	4r	4r	4r	4r	4r
.	16bb-	.	.	.	.	.	.	.	.	.	.	.	.
.	16ff#	.	.	8A	8A	8ff#	8cc	8A	.	.	.	.	.
.	16ff#	.	.	.	.	.	.	.	.	.	.	.	.
=252	=252	=252	=252	=252	=252	=252	=252	=252	=252	=252	=252	=252	=252
2r	16gg	2dd	2r	8B-	8B-	4gg	4dd	8B-	4cc	4c	[2gg	[2g	4GG
.	16gg	.	.	.	.	.	.	.	.	.	.	.	.
.	16ff#	.	.	8A	8A	.	.	8A	.	.	.	.	.
.	16ff#	.	.	.	.	.	.	.	.	.	.	.	.
.	16gg	.	.	8B-	8B-	8r	8r	8B-	4r	4r	.	.	4r
.	16gg	.	.	.	.	.	.	.	.	.	.	.	.
.	16ff	.	.	8B	8B	8ff	8g	8B	.	.	.	.	.
.	16ff	.	.	.	.	.	.	.	.	.	.	.	.
=253	=253	=253	=253	=253	=253	=253	=253	=253	=253	=253	=253	=253	=253
2r	16ee-	[2g	[2g	8c	8c	4ee-	4ee-	8c	4cc	4c	2gg_	2g_	4GG
.	16ee-	.	.	.	.	.	.	.	.	.	.	.	.
.	16dd	.	.	8B	8B	.	.	8B	.	.	.	.	.
.	16dd	.	.	.	.	.	.	.	.	.	.	.	.
.	16ee-	.	.	8c	8c	8r	8r	8c	4r	4r	.	.	4r
.	16ee-	.	.	.	.	.	.	.	.	.	.	.	.
.	16dd	.	.	8d	8d	8dd	8g	8d	.	.	.	.	.
.	16dd	.	.	.	.	.	.	.	.	.	.	.	.
=254	=254	=254	=254	=254	=254	=254	=254	=254	=254	=254	=254	=254	=254
2r	16cc	2g]	2g_	8e-	8e-	4cc	4gg	8e-	4cc	4c	2gg_	2g_	4GG
.	16cc	.	.	.	.	.	.	.	.	.	.	.	.
.	16b	.	.	8d	8d	.	.	8d	.	.	.	.	.
.	16b	.	.	.	.	.	.	.	.	.	.	.	.
.	16cc	.	.	8e-	8e-	8r	8r	8e-	4r	4r	.	.	4r
.	16cc	.	.	.	.	.	.	.	.	.	.	.	.
.	16b	.	.	8d	8d	8b	8g	8d	.	.	.	.	.
.	16b	.	.	.	.	.	.	.	.	.	.	.	.
=255	=255	=255	=255	=255	=255	=255	=255	=255	=255	=255	=255	=255	=255
2r	16cc	16g	2g]	8e-	8e-	2cc	4gg	8e-	[2cc	[2c	2gg_	2g_	4GG
.	16cc	16g	.	.	.	.	.	.	.	.	.	.	.
.	16cc	16g	.	8e-	8e-	.	.	8e-	.	.	.	.	.
.	16cc	16g	.	.	.	.	.	.	.	.	.	.	.
.	16cc	16b-	.	8e-	8e-	.	4bb-	8e-	.	.	.	.	4r
.	16cc	16b-	.	.	.	.	.	.	.	.	.	.	.
.	16cc	16b-	.	8e-	8e-	.	.	8e-	.	.	.	.	.
.	16cc	16b-	.	.	.	.	.	.	.	.	.	.	.
=256	=256	=256	=256	=256	=256	=256	=256	=256	=256	=256	=256	=256	=256
2r	16cc#	16a	4a	2E-	8E-	2cc#	4aa	8E-	2cc]	2c]	2gg]	2g]	4GG
.	16cc#	16a	.	.	.	.	.	.	.	.	.	.	.
.	16cc#	16a	.	.	8E-	.	.	8E-	.	.	.	.	.
.	16cc#	16a	.	.	.	.	.	.	.	.	.	.	.
.	16cc#	16g	8b-	.	8E-	.	4gg	8E-	.	.	.	.	4r
.	16cc#	16g	.	.	.	.	.	.	.	.	.	.	.
.	16cc#	16g	8g	.	8E-	.	.	8E-	.	.	.	.	.
.	16cc#	16g	.	.	.	.	.	.	.	.	.	.	.
=257	=257	=257	=257	=257	=257	=257	=257	=257	=257	=257	=257	=257	=257
2r	4dd	4f#	4d	2D	[2D	4dd	4ff#	2D	[2g	[2G	4dd	4dd	4D
.	8r	4r	4r	.	.	4r	4r	.	.	.	4r	4r	4r
.	8d	.	.	.	.	.	.	.	.	.	.	.	.
=258	=258	=258	=258	=258	=258	=258	=258	=258	=258	=258	=258	=258	=258
2r	8g	4r	2B	2B	2D_	2r	2r	2B	2g_	2G_	2r	2r	2r
.	8a	.	.	.	.	.	.	.	.	.	.	.	.
.	8b	[4g	.	.	.	.	.	.	.	.	.	.	.
.	8cc	.	.	.	.	.	.	.	.	.	.	.	.
=259	=259	=259	=259	=259	=259	=259	=259	=259	=259	=259	=259	=259	=259
2r	4cc#	4g]	4B-	4B-	2D_	2r	2r	4B-	2g_	2G_	2r	2r	2r
.	8dd	8f#	4A	4A	.	.	.	4A	.	.	.	.	.
.	8dd#	8f#	.	.	.	.	.	.	.	.	.	.	.
=260	=260	=260	=260	=260	=260	=260	=260	=260	=260	=260	=260	=260	=260
2r	8ee	8g	4G	4G	2D_	2r	2r	4G	2g_	2G_	2r	2r	2r
.	8dd#	8f#	.	.	.	.	.	.	.	.	.	.	.
.	8ee	8g	8r	8r	.	.	.	8r	.	.	.	.	.
.	8cc#	8e	8A	8A	.	.	.	8A	.	.	.	.	.
=261	=261	=261	=261	=261	=261	=261	=261	=261	=261	=261	=261	=261	=261
2r	4dd	8f#	8d	8d	2D_	2r	2r	8d	2g_	2G_	2r	2r	2r
.	.	8e	8c#	8c#	.	.	.	8c#	.	.	.	.	.
.	8b	8f#	8d	8d	.	.	.	8d	.	.	.	.	.
.	8b	8g	8e	8e	.	.	.	8e	.	.	.	.	.
=262	=262	=262	=262	=262	=262	=262	=262	=262	=262	=262	=262	=262	=262
2r	8cc	8e	4A	4A	2D_	2r	2r	4A	2g_	2G_	2r	2r	2r
.	8b	8d#	.	.	.	.	.	.	.	.	.	.	.
.	8cc	8e	8r	8r	.	.	.	8r	.	.	.	.	.
.	8a	8f#	8d	8d	.	.	.	8d	.	.	.	.	.
=263	=263	=263	=263	=263	=263	=263	=263	=263	=263	=263	=263	=263	=263
2r	4b	8d	8B	8B	2D_	2r	2r	8B	4g]	4G]	2r	2r	2r
.	.	8c#	8A	8A	.	.	.	8A	.	.	.	.	.
.	8g	8d	8B	8B	.	.	.	8B	4r	4r	.	.	.
.	8g#	8f	8d	8d	.	.	.	8d	.	.	.	.	.
=264	=264	=264	=264	=264	=264	=264	=264	=264	=264	=264	=264	=264	=264
2r	8a	8e	8c	8c	2D_	2r	2r	8c	2r	2r	2r	2r	2r
.	8g#	8d	8B	8B	.	.	.	8B	.	.	.	.	.
.	8a	8e	8c	8c	.	.	.	8c	.	.	.	.	.
.	8f#	8c	8A	8A	.	.	.	8A	.	.	.	.	.
=265	=265	=265	=265	=265	=265	=265	=265	=265	=265	=265	=265	=265	=265
2r	8g	8d	8B	8B	2D_	2r	2r	8B	2r	2r	2r	2r	2r
.	8f#	8c	8A	8A	.	.	.	8A	.	.	.	.	.
.	8g	8d	8B	8B	.	.	.	8B	.	.	.	.	.
.	8b	8d	8G	8G	.	.	.	8G	.	.	.	.	.
=266	=266	=266	=266	=266	=266	=266	=266	=266	=266	=266	=266	=266	=266
2r	8cc	2d	8A	8A	2D]	2r	2r	8A	2r	2r	2r	2r	2r
.	8b	.	8G	8G	.	.	.	8G	.	.	.	.	.
.	8cc	.	8A	8A	.	.	.	8A	.	.	.	.	.
.	8a	.	8F#	8F#	.	.	.	8F#	.	.	.	.	.
=267	=267	=267	=267	=267	=267	=267	=267	=267	=267	=267	=267	=267	=267
2r	4b	[2d	8G	8G	4G	2r	2r	4G	2r	8C	2r	2r	2r
.	.	.	8B	8B	.	.	.	.	.	8c	.	.	.
.	4r	.	8d	8d	4r	.	.	4r	.	8e	.	.	.
.	.	.	8B	8B	.	.	.	.	.	8c	.	.	.
=268	=268	=268	=268	=268	=268	=268	=268	=268	=268	=268	=268	=268	=268
8r	8r	2d_	8G	8G	2r	2r	2r	2r	2r	8e	2r	2r	2r
8ddd	8dd	.	8B	8B	.	.	.	.	.	8c	.	.	.
8ddd	8dd	.	8G	8G	.	.	.	.	.	8e	.	.	.
8ddd	8dd	.	8B	8B	.	.	.	.	.	8c	.	.	.
=269	=269	=269	=269	=269	=269	=269	=269	=269	=269	=269	=269	=269	=269
8ddd	8dd	2d_	8F#	8F#	4F#	2r	2r	2r	2r	[2B	2r	2r	2r
8ccc#	8cc#	.	8d	8d	.	.	.	.	.	.	.	.	.
8ccc	8cc	.	8A	8A	4r	.	.	.	.	.	.	.	.
8aa	8a	.	8d	8d	.	.	.	.	.	.	.	.	.
=270	=270	=270	=270	=270	=270	=270	=270	=270	=270	=270	=270	=270	=270
8ff#	8f#	2d_	8c	8c	2r	2r	2r	2r	2r	2B]	2r	2r	2r
8dd	8d	.	8d	8d	.	.	.	.	.	.	.	.	.
8cc	8c	.	8F#	8F#	.	.	.	.	.	.	.	.	.
8a	8A	.	8d	8d	.	.	.	.	.	.	.	.	.
=271	=271	=271	=271	=271	=271	=271	=271	=271	=271	=271	=271	=271	=271
8g	8G	2d_	8G	8G	4G	2r	2r	2r	2r	8C	2r	2r	2r
8gg	8g	.	8B	8B	.	.	.	.	.	8c	.	.	.
8b	8B	.	8d	8d	4r	.	.	.	.	8e	.	.	.
8bb	8b	.	8B	8B	.	.	.	.	.	8c	.	.	.
=272	=272	=272	=272	=272	=272	=272	=272	=272	=272	=272	=272	=272	=272
8dd	8d	2d_	8G	8G	2r	2r	2r	2r	2r	8e	2r	2r	2r
8ddd	8dd	.	8B	8B	.	.	.	.	.	8c	.	.	.
8ddd	8dd	.	8G	8G	.	.	.	.	.	8e	.	.	.
8ddd	8dd	.	8B	8B	.	.	.	.	.	8c	.	.	.
=273	=273	=273	=273	=273	=273	=273	=273	=273	=273	=273	=273	=273	=273
8ddd	8dd	2d_	8F#	8F#	4F#	2r	2r	2r	2r	[2B	2r	2r	2r
8ccc#	8cc#	.	8d	8d	.	.	.	.	.	.	.	.	.
8ccc	8cc	.	8A	8A	4r	.	.	.	.	.	.	.	.
8aa	8a	.	8d	8d	.	.	.	.	.	.	.	.	.
=274	=274	=274	=274	=274	=274	=274	=274	=274	=274	=274	=274	=274	=274
8ff#	8f#	2d_	8c	8c	2r	8r	2r	2r	2r	2B]	2r	2r	2r
8dd	8d	.	8d	8d	.	8aa	.	.	.	.	.	.	.
8cc	8c	.	8F#	8F#	.	8aa	.	.	.	.	.	.	.
8a	8A	.	8d	8d	.	8aa	.	.	.	.	.	.	.
=275	=275	=275	=275	=275	=275	=275	=275	=275	=275	=275	=275	=275	=275
8g	8G	2d_	8G	8G	4G	8aa#	2r	2r	2r	8C	2r	2r	2r
8gg	8g	.	8B	8B	.	8bb	.	.	.	8c	.	.	.
8b	8B	.	8d	8d	4r	8gg	.	.	.	8e	.	.	.
8bb	8b	.	8B	8B	.	8dd	.	.	.	8c	.	.	.
=276	=276	=276	=276	=276	=276	=276	=276	=276	=276	=276	=276	=276	=276
8dd	8d	2d_	8G	8G	2r	4b	2r	2r	2r	8e	2r	2r	2r
8ddd	8dd	.	8B	8B	.	.	.	.	.	8c	.	.	.
8ddd	8dd	.	8G	8G	.	4r	.	.	.	8e	.	.	.
8ddd	8dd	.	8B	8B	.	.	.	.	.	8c	.	.	.
=277	=277	=277	=277	=277	=277	=277	=277	=277	=277	=277	=277	=277	=277
8ddd	8dd	2d_	8F#	8F#	4F#	2r	2r	2r	2r	[2B	2r	2r	2r
8ccc#	8cc#	.	8d	8d	.	.	.	.	.	.	.	.	.
8ccc	8cc	.	8A	8A	4r	.	.	.	.	.	.	.	.
8aa	8a	.	8d	8d	.	.	.	.	.	.	.	.	.
=278	=278	=278	=278	=278	=278	=278	=278	=278	=278	=278	=278	=278	=278
8ff#	8f#	2d]	8c	8c	2r	8r	2r	2r	2r	2B]	2r	2r	2r
8dd	8d	.	8d	8d	.	8aa	.	.	.	.	.	.	.
8cc	8c	.	8F#	8F#	.	8aa	.	.	.	.	.	.	.
8a	8A	.	8d	8d	.	8aa	.	.	.	.	.	.	.
=279	=279	=279	=279	=279	=279	=279	=279	=279	=279	=279	=279	=279	=279
8g	8G	8G	4G	4G	4G	8aa#	2r	2r	2r	4c	2r	2r	2r
8gg	8g	8g	.	.	.	8bb	.	.	.	.	.	.	.
8b	8B	8B	4r	4r	4r	8gg	.	.	.	4r	.	.	.
8bb	8b	8b	.	.	.	8dd	.	.	.	.	.	.	.
=280	=280	=280	=280	=280	=280	=280	=280	=280	=280	=280	=280	=280	=280
8dd	8d	8d	4B	4BB	4BB	4b	2r	2r	2r	2r	2r	2r	2r
8ddd	8dd	8dd	.	.	.	.	.	.	.	.	.	.	.
8gg	8g	8g	4r	4r	4r	4r	.	.	.	.	.	.	.
8ggg	8gg	8gg	.	.	.	.	.	.	.	.	.	.	.
=281	=281	=281	=281	=281	=281	=281	=281	=281	=281	=281	=281	=281	=281
2eee	2ee	2ee	8C	8CC	4C	2r	2r	2r	2r	2r	2r	2r	2r
.	.	.	8c	8C	.	.	.	.	.	.	.	.	.
.	.	.	8E	8EE	4r	.	.	.	.	.	.	.	.
.	.	.	8e	8E	.	.	.	.	.	.	.	.	.
=282	=282	=282	=282	=282	=282	=282	=282	=282	=282	=282	=282	=282	=282
4ccc	4cc	4cc	8A	8AA	2r	2r	2r	2r	2r	2r	2r	2r	2r
.	.	.	8a	8A	.	.	.	.	.	.	.	.	.
4aa	4a	4a	8c	8C	.	.	.	.	.	.	.	.	.
.	.	.	8cc	8c	.	.	.	.	.	.	.	.	.
=283	=283	=283	=283	=283	=283	=283	=283	=283	=283	=283	=283	=283	=283
8gg	8g	4g	4d	4D	4D	2r	2r	2r	2r	2r	2r	2r	2r
8aa	8a	.	.	.	.	.	.	.	.	.	.	.	.
8bb	8b	4r	4r	4r	4r	.	.	.	.	.	.	.	.
8ccc	8cc	.	.	.	.	.	.	.	.	.	.	.	.
=284	=284	=284	=284	=284	=284	=284	=284	=284	=284	=284	=284	=284	=284
8ccc#	8cc#	2r	2r	2r	2r	2r	2r	2r	2r	2r	2r	2r	2r
8ddd	8dd	.	.	.	.	.	.	.	.	.	.	.	.
8eee	8ee	.	.	.	.	.	.	.	.	.	.	.	.
8ddd	8dd	.	.	.	.	.	.	.	.	.	.	.	.
=285	=285	=285	=285	=285	=285	=285	=285	=285	=285	=285	=285	=285	=285
8ccc	8cc	4A 4f#	4d	4D	4D	2r	2r	2r	2r	2r	2r	2r	2r
8bb	8b	.	.	.	.	.	.	.	.	.	.	.	.
8aa	8a	4r	4r	4r	4r	.	.	.	.	.	.	.	.
8bb	8b	.	.	.	.	.	.	.	.	.	.	.	.
=286	=286	=286	=286	=286	=286	=286	=286	=286	=286	=286	=286	=286	=286
8ccc	8cc	4.r	4.r	4.r	4.r	2r	2r	4.r	2r	2r	2r	2r	2r
8ddd	8dd	.	.	.	.	.	.	.	.	.	.	.	.
8eee	8ee	.	.	.	.	.	.	.	.	.	.	.	.
8fff#	8ff#	8d	8d	8D	8D	.	.	8D	.	.	.	.	.
=287	=287	=287	=287	=287	=287	=287	=287	=287	=287	=287	=287	=287	=287
4ggg	8gg	8g	8g	8G	8G	[2gg	[2g	8G	[2cc	[2c	[2g	[2g	4GG
.	4gg	8a	8a	8A	8A	.	.	8A	.	.	.	.	.
4r	.	8b	8b	8B	8B	.	.	8B	.	.	.	.	4r
.	[8gg	8cc	8cc	8c	8c	.	.	8c	.	.	.	.	.
=288	=288	=288	=288	=288	=288	=288	=288	=288	=288	=288	=288	=288	=288
2r	8gg]	4cc#	4cc#	4c#	4c#	2gg_	2g_	4c#	2cc_	2c_	2g_	2g_	4GG
.	4gg	.	.	.	.	.	.	.	.	.	.	.	.
.	.	8dd	8dd	8d	8d	.	.	8d	.	.	.	.	4r
.	[8gg	8dd#	8dd#	8d#	8d#	.	.	8d#	.	.	.	.	.
=289	=289	=289	=289	=289	=289	=289	=289	=289	=289	=289	=289	=289	=289
2r	8gg]	8ee	8ee	8e	8e	2gg_	2g_	8e	2cc_	2c_	2g_	2g_	4GG
.	4gg	8dd#	8dd#	8d#	8d#	.	.	8d#	.	.	.	.	.
.	.	8ee	8ee	8e	8e	.	.	8e	.	.	.	.	4r
.	[8gg	8cc#	8cc#	8c#	8c#	.	.	8c#	.	.	.	.	.
=290	=290	=290	=290	=290	=290	=290	=290	=290	=290	=290	=290	=290	=290
2r	8gg]	4dd	4dd	4d	4d	2gg_	2g_	4d	2cc_	2c_	2g_	2g_	4GG
.	4gg	.	.	.	.	.	.	.	.	.	.	.	.
.	.	8b	8b	8B	8B	.	.	8B	.	.	.	.	4r
.	[8gg	8ee	8ee	8e	8e	.	.	8e	.	.	.	.	.
=291	=291	=291	=291	=291	=291	=291	=291	=291	=291	=291	=291	=291	=291
2r	8gg]	8ff	8ff	8f	8f	2gg_	2g_	8f	2cc_	2c_	2g_	2g_	4GG
.	4gg	8ee	8ee	8e	8e	.	.	8e	.	.	.	.	.
.	.	8ff	8ff	8f	8f	.	.	8f	.	.	.	.	4r
.	[8gg	8dd	8dd	8d	8d	.	.	8d	.	.	.	.	.
=292	=292	=292	=292	=292	=292	=292	=292	=292	=292	=292	=292	=292	=292
2r	8gg]	4ee	4ee	4e	4e	2gg_	2g_	4e	2cc_	2c_	2g]	2g_	4GG
.	4gg	.	.	.	.	.	.	.	.	.	.	.	.
.	.	8cc	8cc	8c	8c	.	.	8c	.	.	.	.	4r
.	8eee	8ee	8cc	8c	8c	.	.	8c	.	.	.	.	.
=293	=293	=293	=293	=293	=293	=293	=293	=293	=293	=293	=293	=293	=293
2r	8fff	8ff	8dd	8d	8d	2gg_	2g_	8d	2cc_	2c_	[2gg	2g_	4GG
.	8eee	8ee	8cc	8c	8c	.	.	8c	.	.	.	.	.
.	8fff	8ff	8dd	8d	8d	.	.	8d	.	.	.	.	4r
.	8ddd	8dd	8b	8B	8B	.	.	8B	.	.	.	.	.
=294	=294	=294	=294	=294	=294	=294	=294	=294	=294	=294	=294	=294	=294
2r	4eee	4ee	8cc	8c	8c	2gg_	2g_	8c	2cc_	2c_	2gg_	2g_	4GG
.	.	.	8b	8B	8B	.	.	8B	.	.	.	.	.
.	8ccc	8cc	8cc	8c	8c	.	.	8c	.	.	.	.	4r
.	8eee	8ee	8g	8G	8G	.	.	8G	.	.	.	.	.
=295	=295	=295	=295	=295	=295	=295	=295	=295	=295	=295	=295	=295	=295
2r	8fff	8ff	8dd	8d	8d	2gg_	2g_	8d	2cc_	2c_	2gg_	2g_	4GG
.	8eee	8ee	8cc	8c	8c	.	.	8c	.	.	.	.	.
.	8fff	8ff	8dd	8d	8d	.	.	8d	.	.	.	.	4r
.	8ddd	8dd	8b	8B	8B	.	.	8B	.	.	.	.	.
=296	=296	=296	=296	=296	=296	=296	=296	=296	=296	=296	=296	=296	=296
2r	8eee	8ee	8cc	8c	8c	8gg]	8g]	8c	4cc]	4c]	4gg]	4g]	4GG
.	8r	8r	8r	8r	8r	8r	8r	8r	.	.	.	.	.
.	8eee	8ccc	8c	8C	8C	8ee	8cc	8C	4r	4r	4r	4r	4r
.	8r	8r	8r	8r	8r	8r	8r	8r	.	.	.	.	.
=297	=297	=297	=297	=297	=297	=297	=297	=297	=297	=297	=297	=297	=297
2r	8ddd	8bb	8d	8D	8D	8dd	8b	8D	4r	4r	4r	4r	4r
.	8r	8r	8r	8r	8r	8r	8r	8r	.	.	.	.	.
.	8ff# 8a	8ff# 8a	8d	8D	8D	8ff#	8a	8D	4dd	4g	4dd	4dd	4D
.	8r	8r	8r	8r	8r	8r	8r	8r	.	.	.	.	.
=298	=298	=298	=298	=298	=298	=298	=298	=298	=298	=298	=298	=298	=298
4.r	4gg 4b	4gg 4b	4g	4G	4G	4gg	4b	4G	4ee	4cc	4dd	4g	4GG
.	4r	4r	4r	4r	4r	4r	4r	4r	4r	4r	4r	4r	4r
8dd	.	.	.	.	.	.	.	.	.	.	.	.	.
=299	=299	=299	=299	=299	=299	=299	=299	=299	=299	=299	=299	=299	=299
8gg	2r	2r	2r	2r	2r	2r	2r	2r	2r	2r	2r	2r	2r
8aa	.	.	.	.	.	.	.	.	.	.	.	.	.
8bb	.	.	.	.	.	.	.	.	.	.	.	.	.
8ccc	.	.	.	.	.	.	.	.	.	.	.	.	.
=300	=300	=300	=300	=300	=300	=300	=300	=300	=300	=300	=300	=300	=300
4ccc#	2r	2r	2r	2r	2r	2r	2r	2r	2r	2r	2r	2r	2r
8ddd	.	.	.	.	.	.	.	.	.	.	.	.	.
8ddd#	.	.	.	.	.	.	.	.	.	.	.	.	.
=301	=301	=301	=301	=301	=301	=301	=301	=301	=301	=301	=301	=301	=301
8eee	2r	2r	2r	2r	2r	4bb	2gg	2r	2r	2r	2r	2r	2r
8ddd#	.	.	.	.	.	.	.	.	.	.	.	.	.
8eee	.	.	.	.	.	4bb-	.	.	.	.	.	.	.
8ccc#	.	.	.	.	.	.	.	.	.	.	.	.	.
=302	=302	=302	=302	=302	=302	=302	=302	=302	=302	=302	=302	=302	=302
4ddd	2r	2r	2r	2r	2r	4aa	4ff#	2r	2r	2r	2r	2r	2r
8r	.	.	.	.	.	8r	8r	.	.	.	.	.	.
8bb	.	.	.	.	.	8aa-	8ff	.	.	.	.	.	.
=303	=303	=303	=303	=303	=303	=303	=303	=303	=303	=303	=303	=303	=303
4ccc	2r	2r	2r	2r	2r	4gg	4ee	2r	2r	2r	2r	2r	2r
8r	.	.	.	.	.	8r	8r	.	.	.	.	.	.
8aa#	.	.	.	.	.	8gg	8ee	.	.	.	.	.	.
=304	=304	=304	=304	=304	=304	=304	=304	=304	=304	=304	=304	=304	=304
4bb	2r	2r	2r	2r	2r	4ff#	4dd#	2r	2r	2r	2r	2r	2r
8r	.	.	.	.	.	8r	8r	.	.	.	.	.	.
8gg#	.	.	.	.	.	8ff	8dd	.	.	.	.	.	.
=305	=305	=305	=305	=305	=305	=305	=305	=305	=305	=305	=305	=305	=305
8aa	2r	2r	2r	2r	2r	4ee	4cc#	2r	2r	2r	2r	2r	2r
8gg#	.	.	.	.	.	.	.	.	.	.	.	.	.
8aa	.	.	.	.	.	4ee-	4cc	.	.	.	.	.	.
8ff#	.	.	.	.	.	.	.	.	.	.	.	.	.
=306	=306	=306	=306	=306	=306	=306	=306	=306	=306	=306	=306	=306	=306
4gg	4.r	4.r	4.r	4.r	4.r	4dd	4b	2r	2r	2r	2r	2r	2r
4r	.	.	.	.	.	4r	4r	.	.	.	.	.	.
.	8ff#	8a	8d	8c	8c	.	.	.	.	.	.	.	.
=307	=307	=307	=307	=307	=307	=307	=307	=307	=307	=307	=307	=307	=307
4.r	8gg	8b	8g	8B	8B	4.r	4.r	2r	2r	2r	2r	2r	2r
.	4.r	4.r	4.r	4.r	4.r	.	.	.	.	.	.	.	.
8ff#	.	.	.	.	.	8cc	8a	.	.	.	.	.	.
=308	=308	=308	=308	=308	=308	=308	=308	=308	=308	=308	=308	=308	=308
8gg	4.r	4.r	4.r	4.r	4.r	8b	8b	4.r	4.r	4.r	2r	2r	2r
4r	.	.	.	.	.	4r	4r	.	.	.	.	.	.
8cc	8ff#	8a	8dd	8c	8c	8ff#	8a	8d	8dd	8g	.	.	.
=309	=309	=309	=309	=309	=309	=309	=309	=309	=309	=309	=309	=309	=309
8dd	8gg	8b	8g	8B	8B	8gg	8b	8G	8ee	8cc	2r	2r	2r
8cc	8ff#	8a	8dd	8c	8c	8ff#	8a	8d	8dd	8g	.	.	.
8dd	8gg	8b	8g	8B	8B	8gg	8b	8G	8ee	8cc	.	.	.
8cc	8ff#	8a	8dd	8c	8c	8ff#	8a	8d	8dd	8g	.	.	.
=310	=310	=310	=310	=310	=310	=310	=310	=310	=310	=310	=310	=310	=310
8dd	8gg	8b	8g	8B	8B	8gg	8b	8G	8ee	8cc	2r	2r	2r
4.r	8r	8r	8r	8r	8r	4.r	4.r	8r	4.r	4.r	.	.	.
.	8ee	8ee	8c	8c	8c	.	.	8c	.	.	.	.	.
.	8r	8r	8r	8r	8r	.	.	8r	.	.	.	.	.
=311	=311	=311	=311	=311	=311	=311	=311	=311	=311	=311	=311	=311	=311
2r	8dd	8b	8d	8d	8d	2r	2r	8d	2r	2r	2r	2r	2r
.	8r	8r	8r	8r	8r	.	.	8r	.	.	.	.	.
.	8ff#	8a	8d	8D	8D	.	.	8D	.	.	.	.	.
.	8r	8r	8r	8r	8r	.	.	8r	.	.	.	.	.
=312	=312	=312	=312	=312	=312	=312	=312	=312	=312	=312	=312	=312	=312
[2ddd	4gg	16b	8g	8G	8G	2bb	[2dd	8G	2cc	2c	2dd	2dd	4GG
.	.	16dd	.	.	.	.	.	.	.	.	.	.	.
.	.	16dd	8f#	8F#	8F#	.	.	8F#	.	.	.	.	.
.	.	16dd	.	.	.	.	.	.	.	.	.	.	.
.	8r	16dd	8g	8G	8G	.	.	8G	.	.	.	.	4r
.	.	16dd	.	.	.	.	.	.	.	.	.	.	.
.	8bb	16dd	8d	8D	8D	.	.	8D	.	.	.	.	.
.	.	16dd	.	.	.	.	.	.	.	.	.	.	.
=313	=313	=313	=313	=313	=313	=313	=313	=313	=313	=313	=313	=313	=313
2ddd_	8ccc	16dd	8a	8A	8A	8ccc	2dd_	8A	2g	2B	8dd	8dd	4D
.	.	16dd	.	.	.	.	.	.	.	.	.	.	.
.	8bb	16dd	8g#	8G#	8G#	8bb	.	8G#	.	.	16dd	16dd	.
.	.	16dd	.	.	.	.	.	.	.	.	16dd	16dd	.
.	8ccc	16dd	8a	8A	8A	8ccc	.	8A	.	.	8dd	8dd	8D
.	.	16dd	.	.	.	.	.	.	.	.	.	.	.
.	8aa	16dd	8d	8D	8D	8aa	.	8D	.	.	8dd	8dd	8D
.	.	16dd	.	.	.	.	.	.	.	.	.	.	.
=314	=314	=314	=314	=314	=314	=314	=314	=314	=314	=314	=314	=314	=314
2ddd_	4bb	16dd 16d	8g	8G	8G	4bb	2dd_	8G	2cc	2c	2dd	2dd	4GG
.	.	16d 16dd	.	.	.	.	.	.	.	.	.	.	.
.	.	16d 16dd	8f#	8F#	8F#	.	.	8F#	.	.	.	.	.
.	.	16dd 16d	.	.	.	.	.	.	.	.	.	.	.
.	8gg	16dd 16d	8g	8G	8G	8gg	.	8G	.	.	.	.	4r
.	.	16dd 16d	.	.	.	.	.	.	.	.	.	.	.
.	8bb	16d 16dd	8d	8D	8D	8bb	.	8D	.	.	.	.	.
.	.	16dd 16d	.	.	.	.	.	.	.	.	.	.	.
=315	=315	=315	=315	=315	=315	=315	=315	=315	=315	=315	=315	=315	=315
2ddd_	8ccc	16d 16dd	8a	8A	8A	8ccc	2dd_	8A	2g	2B	8dd	8dd	4D
.	.	16dd 16d	.	.	.	.	.	.	.	.	.	.	.
.	8bb	16d 16dd	8g#	8G#	8G#	8bb	.	8G#	.	.	16dd	16dd	.
.	.	16d 16dd	.	.	.	.	.	.	.	.	16dd	16dd	.
.	8ccc	16d 16dd	8a	8A	8A	8ccc	.	8A	.	.	8dd	8dd	8D
.	.	16d 16dd	.	.	.	.	.	.	.	.	.	.	.
.	8aa	16d 16dd	8d	8D	8D	8aa	.	8D	.	.	8dd	8dd	8D
.	.	16dd 16d	.	.	.	.	.	.	.	.	.	.	.
=316	=316	=316	=316	=316	=316	=316	=316	=316	=316	=316	=316	=316	=316
2ddd_	4bb	16dd 16d	8g	8G	8G	4bb	2dd_	8G	2cc	2c	2dd	2dd	4GG
.	.	16dd 16d	.	.	.	.	.	.	.	.	.	.	.
.	.	16dd 16d	8f#	8F#	8F#	.	.	8F#	.	.	.	.	.
.	.	16d 16dd	.	.	.	.	.	.	.	.	.	.	.
.	8gg	16d 16dd	8g	8G	8G	8gg	.	8G	.	.	.	.	4r
.	.	16d 16dd	.	.	.	.	.	.	.	.	.	.	.
.	8bb	16d 16dd	8d	8D	8D	8bb	.	8D	.	.	.	.	.
.	.	16dd 16d	.	.	.	.	.	.	.	.	.	.	.
=317	=317	=317	=317	=317	=317	=317	=317	=317	=317	=317	=317	=317	=317
2ddd_	8ccc	16dd 16d	8a	8A	8A	8ccc	2dd_	8A	2g	2B	8dd	8dd	4D
.	.	16d 16dd	.	.	.	.	.	.	.	.	.	.	.
.	8bb	16d 16dd	8g#	8G#	8G#	8bb	.	8G#	.	.	16dd	16dd	.
.	.	16d 16dd	.	.	.	.	.	.	.	.	16dd	16dd	.
.	8ccc	16d 16dd	8a	8A	8A	8ccc	.	8A	.	.	8dd	8dd	8D
.	.	16d 16dd	.	.	.	.	.	.	.	.	.	.	.
.	8aa	16d 16dd	8d	8D	8D	8aa	.	8D	.	.	8dd	8dd	8D
.	.	16d 16dd	.	.	.	.	.	.	.	.	.	.	.
=318	=318	=318	=318	=318	=318	=318	=318	=318	=318	=318	=318	=318	=318
8ddd]	8ddd	4dd 4d	4b	4B	4B	4ddd	4dd]	4B	4cc	4c	[2dd	[2g	4GG
8dd	8dd	.	.	.	.	.	.	.	.	.	.	.	.
8bb	8bb	4r	4r	4r	4r	4r	4r	4r	4r	4r	.	.	4r
8b	8b	.	.	.	.	.	.	.	.	.	.	.	.
=319	=319	=319	=319	=319	=319	=319	=319	=319	=319	=319	=319	=319	=319
8gg	8gg	2r	2r	2r	2r	2r	2r	2r	2r	2r	2dd]	2g]	2r
8g	8g	.	.	.	.	.	.	.	.	.	.	.	.
8dd	8dd	.	.	.	.	.	.	.	.	.	.	.	.
8d	8d	.	.	.	.	.	.	.	.	.	.	.	.
=320	=320	=320	=320	=320	=320	=320	=320	=320	=320	=320	=320	=320	=320
4gg	8gg	8gg	4c	4C	4C	4ee	4cc	4C	2r	2r	[2ee	[2cc	2r
.	8g	8g	.	.	.	.	.	.	.	.	.	.	.
4ee	8ee	8ee	4r	4r	4r	4r	4r	4r	.	.	.	.	.
.	8e	8e	.	.	.	.	.	.	.	.	.	.	.
=321	=321	=321	=321	=321	=321	=321	=321	=321	=321	=321	=321	=321	=321
4cc	8cc	8cc	2r	2r	2r	2r	2r	2r	2r	2r	2ee]	2cc]	2r
.	8c	8c	.	.	.	.	.	.	.	.	.	.	.
4a	8a	8a	.	.	.	.	.	.	.	.	.	.	.
.	8A	8A	.	.	.	.	.	.	.	.	.	.	.
=322	=322	=322	=322	=322	=322	=322	=322	=322	=322	=322	=322	=322	=322
4b	4g	4g	8d	8D	8D	2bb	2gg	8D	2ee	2cc	2dd	2dd	4D
.	.	.	8d	8D	8D	.	.	8D	.	.	.	.	.
4gg	4b 4gg	4gg 4b	8d	8D	8D	.	.	8D	.	.	.	.	8D
.	.	.	8d	8D	8D	.	.	8D	.	.	.	.	8D
=323	=323	=323	=323	=323	=323	=323	=323	=323	=323	=323	=323	=323	=323
4d	4d	4d	8d	8D	8D	2aa	2ff#	8D	2dd	2g	4dd	4dd	4D
.	.	.	8d	8D	8D	.	.	8D	.	.	.	.	.
4ff#	4ff# 4a 4d	4ff# 4d 4a	8d	8D	8D	.	.	8D	.	.	4dd	4dd	4D
.	.	.	8d	8D	8D	.	.	8D	.	.	.	.	.
=324	=324	=324	=324	=324	=324	=324	=324	=324	=324	=324	=324	=324	=324
4gg	4gg 4b 4d	4gg 4d 4b	4G	4GG	4GG	4gg	4gg	4GG	4cc	4e	4dd	4g	4GG
8r	8r	4r	4r	4r	4r	4r	4r	4r	4r	4r	4r	4r	4r
8dd	8d	.	.	.	.	.	.	.	.	.	.	.	.
=325	=325	=325	=325	=325	=325	=325	=325	=325	=325	=325	=325	=325	=325
8gg	8g	2r	2r	2r	2r	2r	2r	2r	2r	2r	2r	2r	2r
8aa	8a	.	.	.	.	.	.	.	.	.	.	.	.
8bb	8b	.	.	.	.	.	.	.	.	.	.	.	.
8ccc	8cc	.	.	.	.	.	.	.	.	.	.	.	.
=326	=326	=326	=326	=326	=326	=326	=326	=326	=326	=326	=326	=326	=326
4ccc#	4cc#	4c 4f#	4f# 4A	4D	4D	2r	2r	2r	2r	2r	2r	2r	2r
8ddd	8dd	4r	4r	4r	4r	.	.	.	.	.	.	.	.
8ddd#	8dd#	.	.	.	.	.	.	.	.	.	.	.	.
=327	=327	=327	=327	=327	=327	=327	=327	=327	=327	=327	=327	=327	=327
8eee	8ee	2r	2r	2r	2r	2r	2r	2r	2r	2r	2r	2r	2r
8ccc	8cc	.	.	.	.	.	.	.	.	.	.	.	.
8bb	8b	.	.	.	.	.	.	.	.	.	.	.	.
8aa	8a	.	.	.	.	.	.	.	.	.	.	.	.
=328	=328	=328	=328	=328	=328	=328	=328	=328	=328	=328	=328	=328	=328
4aa#	4a#	4g 4B	4g 4B	4G	4G	2r	2r	2r	2r	2r	2r	2r	2r
8bb	8b	4r	4r	4r	4r	.	.	.	.	.	.	.	.
8ccc	8cc	.	.	.	.	.	.	.	.	.	.	.	.
=329	=329	=329	=329	=329	=329	=329	=329	=329	=329	=329	=329	=329	=329
8ddd	8dd	2r	2r	2r	2r	2r	2r	2r	2r	2r	2r	2r	2r
8bb	8b	.	.	.	.	.	.	.	.	.	.	.	.
8aa	8a	.	.	.	.	.	.	.	.	.	.	.	.
8gg	8g	.	.	.	.	.	.	.	.	.	.	.	.
=330	=330	=330	=330	=330	=330	=330	=330	=330	=330	=330	=330	=330	=330
4gg#	4g#	4f# 4c	4f# 4A	4D	4D	2r	2r	2r	2r	2r	2r	2r	2r
8aa	8a	4r	4r	4r	4r	.	.	.	.	.	.	.	.
8bb	8b	.	.	.	.	.	.	.	.	.	.	.	.
=331	=331	=331	=331	=331	=331	=331	=331	=331	=331	=331	=331	=331	=331
8ccc	8cc	2r	2r	2r	2r	2r	2r	2r	2r	2r	2r	2r	2r
8aa	8a	.	.	.	.	.	.	.	.	.	.	.	.
8gg	8g	.	.	.	.	.	.	.	.	.	.	.	.
8ff#	8f#	.	.	.	.	.	.	.	.	.	.	.	.
=332	=332	=332	=332	=332	=332	=332	=332	=332	=332	=332	=332	=332	=332
4gg	4g	4g 4B	4B 4g	4G	4G	4.r	4.r	4.r	2r	2r	2r	2r	2r
4r	4r	4r	8r	8r	8r	.	.	.	.	.	.	.	.
.	.	.	8e	8E	8E	8ee	8ee	8e	.	.	.	.	.
=333	=333	=333	=333	=333	=333	=333	=333	=333	=333	=333	=333	=333	=333
2r	4ff# 4a 4d	4ff# 4a 4d	8d	8D	8D	8dd	8dd	8d	4dd	4g	4dd	4dd	4D
.	.	.	8c	8C	8C	8cc	8cc	8c	.	.	.	.	.
.	4r	4r	8B	8BB	8BB	8b	8b	8B	4r	4r	4r	4r	4r
.	.	.	8A	8AA	8AA	8a	8a	8A	.	.	.	.	.
=334	=334	=334	=334	=334	=334	=334	=334	=334	=334	=334	=334	=334	=334
4.r	4b 4gg 4d	4b 4d 4gg	4G	4GG	4GG	4g	4g	4G	4ee	4cc	4dd	4g	4GG
.	4r	4r	4r	4r	4r	4r	4r	4r	4r	4r	4r	4r	4r
8eee	.	.	.	.	.	.	.	.	.	.	.	.	.
=335	=335	=335	=335	=335	=335	=335	=335	=335	=335	=335	=335	=335	=335
8ddd	2r	2r	2r	2r	2r	4ff#	4cc	2r	4dd	4g	2r	2r	2r
8ccc	.	.	.	.	.	.	.	.	.	.	.	.	.
8bb	.	.	.	.	.	4r	4r	.	4r	4r	.	.	.
8aa	.	.	.	.	.	.	.	.	.	.	.	.	.
=336	=336	=336	=336	=336	=336	=336	=336	=336	=336	=336	=336	=336	=336
4gg	2r	4.r	4.r	4.r	4.r	4gg	4b	4.r	4ee	4cc	2r	2r	2r
4r	.	.	.	.	.	4r	4r	.	4r	4r	.	.	.
.	.	8e	8e	8E	8E	.	.	8e	.	.	.	.	.
=337	=337	=337	=337	=337	=337	=337	=337	=337	=337	=337	=337	=337	=337
4aa	4ff# 4d 4a	8d	8d	8D	8D	4aa	4ff#	8d	4dd	4g	4dd	4dd	4D
.	.	8c	8c	8C	8C	.	.	8c	.	.	.	.	.
4r	4r	8B	8B	8BB	8BB	4r	4r	8B	4r	4r	4r	4r	4r
.	.	8A	8A	8AA	8AA	.	.	8A	.	.	.	.	.
=338	=338	=338	=338	=338	=338	=338	=338	=338	=338	=338	=338	=338	=338
4bb	4gg 4b 4d	4G	4G	4GG	4GG	4bb	4gg	4G	4ee	4cc	4dd	4g	4GG
8r	8r	8r	8r	8r	8r	8r	8r	8r	8r	8r	8r	8r	8r
8aa	8ff#	8aa	8d	8D	8D	8aa	8ff#	8d	8dd	8g	8dd	8dd	8D
=339	=339	=339	=339	=339	=339	=339	=339	=339	=339	=339	=339	=339	=339
8bb	8gg	8bb	8d	8GG	8GG	8bb	8gg	8G	8ee	8cc	8dd	8dd	8GG
8aa	8ff#	8aa	8d	8D	8D	8aa	8ff#	8d	8dd	8g	8dd	8dd	8D
8bb	8gg	8bb	8d	8GG	8GG	8bb	8gg	8G	8ee	8cc	8dd	8dd	8GG
8aa	8ff#	8aa	8d	8D	8D	8aa	8ff#	8d	8dd	8g	8dd	8dd	8D
=340	=340	=340	=340	=340	=340	=340	=340	=340	=340	=340	=340	=340	=340
4bb	4gg	4bb	4d	4GG	4GG	4bb	4gg	4G	4ee	4cc	4dd	4dd	4GG
4r	4r	4r	4r	4r	4r	4r	4r	4r	4r	4r	4r	4r	4r
=341	=341	=341	=341	=341	=341	=341	=341	=341	=341	=341	=341	=341	=341
4gg	4gg 4b 4d	4gg 4d 4b	4G 4d	4GG	4GG	4gg	4dd	4GG	4cc	4e	4dd	4dd	4GG
4gg	4gg 4b 4d	4gg 4b 4d	4G 4d	4GG	4GG	4gg	4dd	4GG	4cc	4e	4dd	4dd	4GG
=342	=342	=342	=342	=342	=342	=342	=342	=342	=342	=342	=342	=342	=342
4gg	4gg 4b 4d	4gg 4b 4d	4G 4d	4GG	4GG	4gg	4b	4GG	4cc	4e	4dd	4dd	4GG
4r	4r	4r	4r	4r	4r	4r	4r	4r	4r	4r	4r	4r	4r
==	==	==	==	==	==	==	==	==	==	==	==	==	==
*-	*-	*-	*-	*-	*-	*-	*-	*-	*-	*-	*-	*-	*-
!!!RWG1: This file contains only pitch and duration data.
!!!RWG2: Transposing instruments are not transposed.
!!!RWG3: Spines may have incompatible meters.
!!!RWG4: Durations of rests and tied notes may be interpreted.
!!!RWG: Key is interpreted using the Humdrum key tool.
!!!OPT: Oxford
!!!AFT: stage1
!!!END: 1997/04/15
!!format changes:
!!content changes:
!!public access: complete
!!!KEY: 167329309
!!!EMD: Converted from MuseData to Humdrum Dec 16, 2000, by Andreas Kornstaedt using muse2kern.
